ncols 60
nrows 60
xllcorner 300000
yllcorner 4100000
cellsize 1000
NODATA_value -9999
524 531 536 542 548 554 560 566 572 579 584 591 596 602 608 613 618 624 628 633 637 641 645 649 652 656 659 662 665 669 672 675 678 682 685 689 693 696 700 704 708 712 717 720 725 730 734 738 742 747 752 756 761 765 770 775 779 784 788 793
524 530 535 542 548 555 561 568 574 581 587 592 599 605 611 616 622 627 632 637 640 645 649 651 655 658 661 664 667 670 673 676 679 682 685 688 692 696 699 703 707 711 715 719 723 728 732 737 741 745 750 754 759 764 768 773 777 782 787 791
523 530 535 542 549 556 562 569 576 582 590 596 603 609 615 621 627 631 636 640 645 649 652 656 659 661 664 667 670 672 674 677 680 683 685 688 692 695 698 702 706 710 714 718 722 726 730 735 740 743 748 753 757 762 766 771 776 780 785 789
523 530 536 543 550 557 564 571 579 586 592 600 606 614 620 626 631 637 641 646 650 654 657 661 663 665 668 670 673 674 676 679 681 684 686 689 692 695 698 702 705 708 713 717 720 725 730 733 738 742 747 751 755 760 765 769 774 778 783 788
523 530 536 544 551 558 567 574 581 590 597 604 612 618 626 631 638 643 648 652 656 660 662 665 668 670 673 673 675 677 679 681 683 684 687 689 692 695 698 701 705 708 712 716 719 724 728 732 736 741 745 750 753 758 763 767 772 776 781 786
523 530 537 546 553 561 569 577 585 593 602 610 617 625 632 638 645 650 655 660 663 667 670 672 674 675 677 679 680 681 682 684 684 686 688 690 693 696 698 701 704 707 711 715 719 722 727 730 735 740 743 748 753 757 761 765 770 775 779 784
523 531 538 546 555 564 572 581 590 599 607 615 624 632 639 646 652 658 663 668 672 674 677 679 681 682 683 684 684 685 685 686 687 689 690 692 694 696 698 701 704 707 710 714 718 721 726 730 734 738 742 747 751 755 760 765 768 773 777 782
523 532 540 548 558 567 576 585 595 604 614 623 631 639 648 655 661 667 673 676 680 684 685 687 688 689 690 690 690 690 690 690 691 691 692 694 695 696 699 701 704 707 710 714 718 721 725 729 733 737 742 745 750 754 758 763 767 771 776 780
524 533 542 551 560 570 580 590 600 610 620 630 639 649 657 664 671 677 682 686 690 693 695 696 696 697 696 696 696 696 695 695 695 695 695 696 696 698 700 702 705 707 710 714 717 720 724 728 732 736 741 744 749 753 757 761 765 770 775 778
525 535 544 553 563 574 584 595 606 617 627 638 648 658 666 674 681 687 693 697 700 703 705 706 706 706 705 704 703 701 700 699 698 698 698 698 698 700 701 703 706 707 710 714 717 720 724 728 731 735 740 743 748 752 756 760 765 768 773 777
526 535 546 556 567 578 589 601 613 624 636 647 657 667 676 684 692 698 704 708 711 714 715 716 715 715 713 711 709 707 706 704 703 702 701 701 701 702 703 705 707 708 711 714 717 720 724 728 731 735 739 742 747 751 755 759 764 767 772 776
527 537 547 558 570 582 594 606 619 631 643 655 666 677 686 696 703 710 716 719 723 725 726 726 725 724 722 719 717 715 712 709 707 706 705 704 704 704 705 706 707 709 712 715 718 720 724 728 731 735 739 742 746 750 754 758 762 766 770 775
528 539 550 561 574 586 599 612 626 638 651 664 676 687 697 707 715 721 727 731 734 736 737 737 735 733 730 728 725 721 719 716 713 710 709 707 707 707 707 708 709 711 713 716 719 721 725 728 731 735 739 742 746 750 753 757 762 765 769 774
529 540 552 564 577 591 604 618 632 646 660 673 685 697 707 718 726 733 739 743 746 748 748 747 745 743 740 736 732 729 725 721 719 716 713 711 710 710 710 710 711 713 715 718 719 722 726 729 732 735 739 742 746 750 753 757 761 765 768 772
530 542 554 567 581 594 609 624 638 652 667 681 695 707 718 728 737 744 750 754 757 759 759 757 755 753 749 744 741 736 731 728 724 720 718 716 714 713 713 713 714 715 717 719 721 724 727 730 733 736 740 742 746 750 753 756 760 764 767 772
531 543 556 569 583 598 613 628 644 660 674 689 703 716 728 738 747 754 761 765 768 769 769 767 765 762 757 753 748 742 738 733 730 725 722 719 718 717 716 716 717 718 719 721 723 726 729 731 734 737 741 743 747 750 753 756 760 764 767 771
532 544 558 571 586 602 617 633 650 665 681 696 710 724 736 747 757 765 771 775 777 779 778 776 774 770 765 761 755 750 744 739 734 730 727 724 722 720 719 719 719 720 722 724 726 728 730 733 736 739 742 744 748 751 753 757 760 764 766 770
532 545 558 573 588 604 620 637 653 671 686 702 718 731 744 755 765 773 779 784 787 788 787 785 782 777 773 767 762 756 750 745 740 735 731 729 726 725 723 723 723 724 725 727 729 730 733 735 738 741 743 746 749 752 754 757 761 764 766 770
532 546 559 574 590 606 623 640 657 674 691 707 723 737 751 762 772 780 787 791 794 795 794 792 789 785 779 774 768 762 756 750 745 741 737 733 730 729 728 727 727 728 729 730 732 734 736 738 741 742 745 748 751 753 755 758 761 764 767 770
532 545 559 575 591 607 625 642 660 677 695 711 727 742 755 767 777 786 792 797 800 801 800 799 795 790 785 779 773 767 761 755 750 745 742 738 735 733 732 731 731 732 733 734 736 738 740 742 743 745 748 750 753 754 757 760 762 765 767 770
531 545 559 574 591 608 626 643 661 679 696 714 730 745 758 771 781 789 797 801 804 805 805 802 799 795 789 784 777 771 765 760 754 750 745 742 740 738 737 736 736 736 737 739 740 742 743 745 747 749 751 753 754 757 759 761 763 765 767 770
529 543 558 574 590 607 625 643 661 679 697 714 730 746 760 772 783 792 799 803 807 808 807 805 802 798 792 787 781 775 769 764 758 753 750 747 744 742 742 741 741 742 742 743 744 746 748 749 751 753 754 756 757 759 761 763 765 766 768 771
528 542 557 572 589 605 624 641 660 678 696 713 730 745 759 772 783 791 799 804 807 809 808 806 803 799 794 789 783 777 772 766 762 757 753 751 749 747 746 746 746 746 747 748 750 751 753 753 755 756 758 759 761 762 764 765 766 768 769 771
525 539 554 569 586 604 621 639 658 675 694 711 728 742 757 769 780 789 797 802 805 807 807 806 803 799 795 789 785 779 774 769 765 761 758 755 753 752 752 751 752 752 753 753 755 756 757 759 760 761 762 763 764 765 766 767 768 769 771 772
523 536 551 567 583 600 617 636 653 672 689 707 723 739 753 765 776 786 793 799 802 804 804 803 801 798 794 789 785 780 776 771 767 764 761 759 757 756 756 756 757 757 758 760 761 762 763 764 765 765 766 767 767 768 769 769 770 771 772 774
520 533 547 563 579 595 613 630 649 666 684 701 717 732 746 759 770 779 787 792 797 799 799 799 798 795 791 788 784 779 776 772 769 766 765 763 762 762 762 762 763 764 765 765 766 767 768 769 770 771 771 771 772 772 772 772 773 773 774 775
516 529 544 558 574 591 607 625 642 660 677 694 709 725 739 751 762 771 779 785 789 792 793 793 792 790 788 785 782 778 776 773 770 768 767 766 765 766 766 767 768 769 771 772 773 774 775 776 776 776 776 776 776 776 776 776 775 775 776 776
512 525 538 553 569 584 601 618 635 652 669 685 701 716 729 742 753 762 770 776 780 784 786 787 786 785 783 781 779 776 775 773 771 770 769 769 770 770 771 773 774 776 776 778 779 780 781 781 781 781 781 780 780 779 778 778 777 777 777 777
508 520 534 547 562 578 593 610 627 643 660 675 691 705 719 730 742 751 759 765 770 775 776 778 778 778 777 776 775 774 773 772 771 771 772 772 773 775 776 777 779 781 783 784 786 787 787 788 787 787 786 786 785 783 782 781 780 779 779 778
503 515 528 542 556 570 586 602 617 634 650 664 679 694 707 719 730 739 747 753 759 764 766 768 770 771 771 771 770 770 770 770 771 772 773 775 776 778 781 783 785 788 789 790 792 792 793 793 793 792 791 790 788 788 786 784 783 782 780 780
499 510 523 535 549 563 578 592 608 623 638 653 667 681 694 706 716 726 734 741 747 752 755 758 761 762 764 765 765 766 767 768 770 772 775 776 779 782 785 788 790 793 795 797 798 799 799 799 799 798 796 795 793 791 789 788 786 784 782 781
493 504 516 529 542 555 569 583 598 613 627 641 655 668 680 692 702 712 720 728 734 739 743 747 751 753 755 757 759 762 764 766 769 772 775 778 782 786 788 792 795 798 800 802 803 804 804 804 803 802 800 799 797 795 792 790 788 786 784 782
489 499 510 522 535 547 560 574 588 602 615 628 642 654 666 678 688 697 706 714 720 726 731 736 740 743 747 750 753 756 760 764 767 771 776 779 784 788 792 796 799 802 805 807 809 810 810 810 809 807 805 803 800 798 795 792 789 788 785 783
483 493 504 515 527 539 551 564 578 591 604 616 629 641 652 663 673 684 692 699 707 713 719 724 729 733 738 742 746 751 755 760 765 770 776 780 786 790 795 799 803 807 810 812 813 814 814 814 812 811 809 807 804 800 798 795 791 788 787 784
478 488 498 509 519 531 543 555 567 580 592 604 616 627 638 650 660 669 677 685 693 700 707 712 718 723 729 734 740 745 751 756 763 768 775 780 787 792 798 802 807 811 813 816 818 818 819 818 817 814 812 810 807 803 799 797 793 790 788 785
473 482 491 501 512 523 534 546 557 569 581 592 604 615 625 636 645 655 663 672 680 687 694 700 707 713 719 726 732 739 746 753 759 766 774 780 787 793 799 804 810 813 817 819 821 822 822 821 820 818 815 812 809 805 801 798 794 791 788 785
468 477 486 495 505 515 525 536 547 558 569 581 591 602 612 622 631 641 650 658 666 674 682 689 696 703 710 718 725 732 741 748 756 764 772 779 787 793 799 806 811 815 819 822 823 824 824 823 822 820 817 813 811 806 802 799 795 791 788 785
464 472 480 489 498 508 517 527 537 548 558 569 579 590 599 609 618 627 637 645 653 661 670 678 685 694 701 709 718 726 735 743 752 761 769 777 786 793 799 806 811 816 820 822 824 825 825 824 823 821 818 814 811 807 803 799 795 791 788 785
459 466 475 483 491 500 510 519 529 538 548 558 568 578 587 597 606 615 624 633 641 650 658 667 675 684 693 701 710 719 729 738 748 757 766 775 783 791 799 805 811 816 820 822 825 826 826 825 823 822 818 815 811 807 802 799 794 790 787 784
454 462 469 477 486 494 502 512 521 530 539 548 558 567 576 585 594 604 612 621 629 638 648 656 665 674 684 693 703 713 722 732 742 753 763 772 780 789 797 803 810 815 819 822 824 825 825 824 823 821 818 814 811 806 801 798 793 789 786 782
451 457 465 472 479 488 496 504 512 522 530 539 547 557 566 574 583 592 601 610 619 627 637 646 656 665 675 685 696 706 717 727 737 748 758 767 777 786 794 801 807 812 817 820 822 823 823 822 822 819 816 812 809 804 800 796 791 788 784 780
447 454 460 467 475 482 489 498 505 513 522 530 538 547 556 564 573 581 591 600 608 617 627 637 647 656 667 677 688 698 709 720 731 742 753 763 773 781 789 797 804 810 813 817 820 821 821 820 819 816 813 810 806 802 798 793 789 785 781 778
443 449 455 463 469 477 484 491 499 506 514 523 530 538 546 555 564 572 581 590 599 608 617 627 638 648 659 669 680 691 703 714 725 736 747 757 767 776 785 792 799 805 810 812 815 817 817 816 815 812 810 807 802 799 795 790 787 782 778 776
440 445 452 458 465 471 478 485 492 500 507 515 523 531 538 546 555 564 572 581 590 600 609 619 629 639 650 661 673 684 696 707 719 730 741 751 761 770 779 787 793 799 804 808 810 811 812 811 811 808 805 802 799 795 790 787 783 779 776 772
436 442 448 454 460 466 473 480 487 494 501 509 516 523 531 539 547 556 564 573 581 592 601 611 621 631 642 653 665 676 688 700 711 722 733 744 754 764 772 780 787 793 798 801 804 805 806 806 804 802 800 797 794 790 786 782 778 775 772 768
433 439 444 450 456 463 468 475 482 489 495 502 510 517 524 532 540 548 557 565 574 583 593 603 614 624 635 646 657 669 681 692 704 715 726 737 747 756 765 773 779 785 790 794 797 799 799 799 798 796 794 791 788 785 781 777 774 770 767 765
431 435 441 447 453 458 465 471 477 483 490 497 504 511 518 525 534 541 549 558 567 576 586 595 605 616 627 638 650 661 673 684 696 707 718 729 739 748 756 765 771 776 782 786 788 790 791 791 790 789 787 785 782 778 776 772 769 765 763 761
427 432 438 443 449 454 461 466 473 479 485 492 499 505 512 520 527 535 543 552 560 569 579 589 599 609 620 630 642 653 664 676 687 698 709 719 730 739 747 755 762 767 773 776 779 781 783 783 782 781 779 777 775 772 769 766 763 761 758 755
425 430 435 441 446 452 457 463 468 475 481 488 494 500 507 514 522 529 537 546 554 563 572 581 592 602 613 623 634 645 657 668 679 690 700 710 720 730 738 745 753 758 763 767 770 772 774 774 774 773 771 769 767 765 763 760 757 754 753 751
422 427 432 438 443 448 454 459 466 471 477 483 489 496 502 510 517 524 532 540 548 557 566 575 585 595 605 615 627 638 649 660 670 681 691 701 710 719 728 735 742 748 753 757 760 763 764 765 765 764 763 762 760 757 755 753 751 749 747 746
420 424 430 435 440 445 451 456 462 467 473 479 486 491 499 505 512 519 526 535 543 551 560 569 579 588 598 608 619 629 640 650 661 672 682 692 701 709 718 725 731 737 742 746 750 752 753 754 755 754 754 753 752 750 748 746 744 743 742 741
417 422 427 432 437 443 448 453 458 464 470 476 481 488 494 500 508 514 522 530 537 546 554 563 572 581 592 602 612 622 632 642 652 662 673 682 691 699 707 714 720 726 731 735 739 742 743 744 745 745 745 744 743 742 741 740 738 737 736 735
415 420 425 430 434 440 445 450 455 461 466 472 478 484 490 497 503 511 517 524 533 540 548 558 566 575 584 594 604 614 624 634 644 653 662 672 681 688 696 703 709 716 720 724 728 730 733 734 735 736 736 735 735 734 733 732 731 730 730 730
412 418 422 427 432 437 443 447 453 458 464 469 475 481 487 493 500 506 513 520 528 535 544 552 560 569 578 587 597 606 615 626 635 644 653 661 671 678 685 693 698 705 709 714 717 720 722 724 725 726 727 727 726 726 726 725 725 724 724 724
410 415 420 425 430 435 440 445 450 455 461 466 472 477 483 489 496 502 509 516 523 531 538 546 555 563 571 581 590 599 608 617 627 635 644 652 661 668 675 682 688 694 698 703 707 709 712 714 716 717 718 718 718 718 718 718 719 719 719 719
408 413 418 422 428 432 437 443 447 453 458 464 469 475 480 486 492 499 505 512 519 526 534 541 549 558 566 574 582 592 600 609 617 627 635 642 650 658 665 672 677 683 687 692 696 699 702 704 706 707 708 709 709 710 710 711 711 712 713 714
406 411 416 420 425 430 435 440 445 450 455 461 466 472 477 483 489 495 501 508 515 522 529 536 544 552 559 568 576 584 592 601 609 617 626 633 641 648 655 661 667 673 677 682 685 689 692 695 696 698 699 701 702 703 704 705 705 707 707 708
404 408 413 419 423 428 432 438 443 448 453 458 464 469 475 480 486 492 498 504 511 518 524 532 539 546 554 562 569 578 586 593 602 609 617 625 632 638 645 651 657 662 667 672 675 679 682 684 687 689 691 693 694 696 696 697 699 700 702 703
402 407 411 416 420 426 431 435 441 445 451 455 461 466 471 477 483 489 495 500 507 513 520 527 535 541 548 556 564 571 579 586 594 602 609 616 623 629 636 642 648 652 658 662 666 670 673 676 678 681 683 684 686 688 690 691 693 695 696 698
399 405 409 414 419 423 428 433 438 443 448 453 458 464 469 474 480 486 491 498 503 510 516 523 530 536 544 550 558 565 572 580 587 594 601 608 615 621 627 633 638 644 649 653 657 661 664 667 670 673 675 677 679 682 684 685 687 689 692 694
