ncols 60
nrows 60
xllcorner 300000
yllcorner 4100000
cellsize 1000
NODATA_value -9999
17.06 16.93 16.8 16.66 16.52 16.38 16.24 16.1 15.96 15.81 15.67 15.53 15.4 15.26 15.13 15 14.88 14.77 14.65 14.55 14.45 14.35 14.26 14.18 14.09 14.01 13.94 13.86 13.79 13.71 13.64 13.56 13.48 13.41 13.32 13.24 13.16 13.07 12.98 12.89 12.79 12.7 12.6 12.5 12.4 12.3 12.2 12.09 11.99 11.88 11.78 11.67 11.57 11.46 11.35 11.25 11.14 11.03 10.93 10.82
17.02 16.89 16.75 16.6 16.46 16.31 16.16 16.01 15.86 15.71 15.57 15.42 15.27 15.13 15 14.87 14.75 14.63 14.51 14.41 14.31 14.22 14.13 14.05 13.97 13.9 13.83 13.76 13.69 13.62 13.56 13.49 13.42 13.34 13.27 13.19 13.11 13.03 12.94 12.85 12.76 12.67 12.57 12.48 12.38 12.28 12.18 12.07 11.97 11.87 11.76 11.66 11.55 11.45 11.34 11.23 11.13 11.02 10.91 10.81
16.98 16.84 16.69 16.54 16.39 16.23 16.08 15.92 15.76 15.6 15.44 15.29 15.14 14.99 14.85 14.72 14.59 14.47 14.35 14.25 14.15 14.06 13.98 13.9 13.83 13.77 13.7 13.64 13.58 13.52 13.46 13.4 13.34 13.27 13.21 13.14 13.06 12.98 12.9 12.82 12.73 12.64 12.55 12.45 12.35 12.26 12.15 12.05 11.95 11.85 11.74 11.64 11.54 11.43 11.32 11.22 11.11 11.01 10.9 10.79
16.93 16.78 16.63 16.47 16.31 16.14 15.98 15.81 15.64 15.47 15.31 15.14 14.98 14.83 14.68 14.54 14.41 14.29 14.17 14.07 13.97 13.89 13.81 13.74 13.67 13.62 13.56 13.51 13.46 13.41 13.36 13.31 13.25 13.2 13.14 13.07 13 12.93 12.85 12.77 12.69 12.6 12.51 12.42 12.33 12.23 12.13 12.03 11.93 11.83 11.72 11.62 11.52 11.41 11.31 11.2 11.1 10.99 10.89 10.78
16.88 16.72 16.56 16.39 16.22 16.05 15.87 15.69 15.51 15.33 15.15 14.98 14.81 14.65 14.49 14.35 14.21 14.08 13.97 13.87 13.77 13.69 13.62 13.55 13.5 13.45 13.4 13.36 13.32 13.28 13.24 13.2 13.16 13.11 13.06 13 12.94 12.87 12.8 12.73 12.65 12.56 12.48 12.39 12.3 12.2 12.1 12.01 11.91 11.81 11.7 11.6 11.5 11.39 11.29 11.19 11.08 10.98 10.87 10.77
16.82 16.65 16.48 16.3 16.12 15.94 15.75 15.56 15.36 15.17 14.98 14.8 14.62 14.45 14.28 14.13 13.99 13.86 13.74 13.64 13.55 13.47 13.41 13.35 13.3 13.26 13.23 13.2 13.17 13.14 13.11 13.08 13.05 13.01 12.97 12.92 12.87 12.81 12.74 12.67 12.6 12.52 12.44 12.35 12.26 12.17 12.07 11.98 11.88 11.78 11.68 11.58 11.48 11.37 11.27 11.17 11.06 10.96 10.85 10.75
16.75 16.58 16.4 16.21 16.02 15.82 15.61 15.41 15.2 15 14.8 14.6 14.41 14.23 14.05 13.89 13.75 13.61 13.5 13.39 13.31 13.23 13.17 13.12 13.09 13.06 13.03 13.02 13 12.98 12.97 12.95 12.93 12.9 12.87 12.83 12.79 12.74 12.68 12.61 12.55 12.47 12.39 12.31 12.22 12.13 12.04 11.95 11.85 11.75 11.65 11.55 11.45 11.35 11.25 11.15 11.04 10.94 10.84 10.73
16.68 16.5 16.31 16.11 15.9 15.69 15.47 15.25 15.03 14.81 14.59 14.38 14.18 13.99 13.8 13.64 13.48 13.35 13.23 13.13 13.04 12.97 12.92 12.88 12.85 12.83 12.82 12.82 12.82 12.81 12.81 12.81 12.8 12.78 12.76 12.73 12.7 12.66 12.61 12.55 12.48 12.42 12.34 12.26 12.18 12.09 12 11.91 11.81 11.72 11.62 11.52 11.42 11.32 11.22 11.12 11.02 10.92 10.82 10.71
16.61 16.42 16.21 16 15.78 15.55 15.32 15.08 14.85 14.61 14.38 14.15 13.94 13.73 13.54 13.36 13.2 13.06 12.94 12.84 12.76 12.69 12.65 12.62 12.6 12.59 12.6 12.61 12.62 12.63 12.64 12.65 12.66 12.65 12.64 12.63 12.6 12.57 12.53 12.48 12.42 12.35 12.28 12.21 12.13 12.05 11.96 11.87 11.78 11.68 11.59 11.49 11.39 11.3 11.2 11.1 11 10.9 10.8 10.69
16.54 16.33 16.11 15.88 15.65 15.41 15.16 14.91 14.65 14.4 14.15 13.91 13.68 13.46 13.26 13.07 12.9 12.76 12.64 12.53 12.46 12.4 12.36 12.34 12.33 12.34 12.36 12.38 12.41 12.44 12.46 12.49 12.5 12.52 12.52 12.51 12.5 12.47 12.44 12.4 12.34 12.29 12.22 12.15 12.07 11.99 11.91 11.82 11.73 11.64 11.55 11.45 11.36 11.26 11.17 11.07 10.97 10.87 10.77 10.67
16.46 16.24 16.01 15.77 15.51 15.26 14.99 14.72 14.45 14.18 13.92 13.66 13.41 13.18 12.96 12.77 12.59 12.44 12.32 12.22 12.14 12.09 12.06 12.05 12.05 12.07 12.11 12.14 12.19 12.23 12.27 12.31 12.34 12.37 12.38 12.39 12.38 12.37 12.34 12.31 12.26 12.21 12.15 12.08 12.01 11.94 11.85 11.77 11.68 11.59 11.5 11.41 11.32 11.23 11.13 11.04 10.94 10.84 10.74 10.65
16.37 16.14 15.9 15.64 15.38 15.1 14.82 14.53 14.24 13.96 13.67 13.4 13.14 12.89 12.66 12.46 12.28 12.12 11.99 11.89 11.82 11.77 11.75 11.75 11.77 11.8 11.84 11.9 11.96 12.02 12.07 12.13 12.17 12.21 12.24 12.26 12.26 12.26 12.24 12.21 12.17 12.13 12.07 12.01 11.94 11.87 11.79 11.71 11.63 11.54 11.45 11.37 11.28 11.18 11.09 11 10.91 10.81 10.72 10.62
16.29 16.05 15.79 15.52 15.24 14.95 14.65 14.34 14.03 13.73 13.43 13.14 12.86 12.6 12.36 12.14 11.95 11.79 11.66 11.56 11.49 11.45 11.44 11.44 11.47 11.52 11.58 11.65 11.72 11.8 11.87 11.94 12 12.05 12.09 12.12 12.13 12.14 12.13 12.11 12.08 12.04 11.99 11.93 11.87 11.8 11.72 11.65 11.57 11.48 11.4 11.31 11.23 11.14 11.05 10.96 10.87 10.78 10.68 10.59
16.21 15.96 15.69 15.4 15.1 14.79 14.47 14.15 13.83 13.5 13.18 12.88 12.58 12.31 12.06 11.83 11.63 11.47 11.34 11.24 11.17 11.13 11.12 11.14 11.18 11.24 11.31 11.39 11.48 11.57 11.66 11.74 11.82 11.88 11.93 11.97 12 12.01 12.01 12 11.97 11.94 11.89 11.84 11.78 11.72 11.65 11.57 11.5 11.42 11.34 11.25 11.17 11.09 11 10.91 10.82 10.74 10.65 10.56
16.13 15.86 15.58 15.28 14.97 14.64 14.31 13.97 13.62 13.28 12.95 12.62 12.31 12.03 11.76 11.53 11.32 11.15 11.01 10.91 10.85 10.82 10.81 10.84 10.89 10.96 11.05 11.14 11.24 11.35 11.45 11.54 11.63 11.71 11.77 11.82 11.86 11.88 11.88 11.88 11.86 11.83 11.79 11.74 11.69 11.63 11.56 11.49 11.42 11.34 11.27 11.19 11.11 11.03 10.94 10.86 10.78 10.69 10.61 10.52
16.06 15.78 15.48 15.17 14.84 14.5 14.15 13.79 13.43 13.07 12.72 12.38 12.06 11.76 11.48 11.24 11.02 10.85 10.71 10.61 10.54 10.51 10.52 10.55 10.61 10.69 10.79 10.9 11.01 11.13 11.24 11.35 11.45 11.53 11.61 11.66 11.71 11.74 11.75 11.75 11.74 11.71 11.68 11.63 11.58 11.53 11.46 11.4 11.33 11.26 11.19 11.11 11.04 10.96 10.88 10.8 10.72 10.64 10.56 10.48
15.99 15.7 15.39 15.06 14.72 14.37 14 13.63 13.25 12.88 12.51 12.16 11.82 11.51 11.22 10.96 10.74 10.56 10.42 10.32 10.26 10.23 10.24 10.28 10.35 10.44 10.54 10.66 10.79 10.91 11.04 11.15 11.26 11.36 11.44 11.5 11.55 11.59 11.61 11.61 11.6 11.58 11.55 11.51 11.47 11.42 11.36 11.3 11.23 11.17 11.1 11.03 10.96 10.89 10.81 10.74 10.66 10.59 10.51 10.43
15.92 15.62 15.3 14.97 14.61 14.25 13.87 13.48 13.09 12.7 12.32 11.96 11.61 11.28 10.98 10.72 10.49 10.31 10.16 10.06 9.99 9.97 9.98 10.03 10.1 10.2 10.31 10.44 10.57 10.71 10.84 10.97 11.08 11.18 11.27 11.34 11.4 11.44 11.46 11.47 11.46 11.45 11.42 11.39 11.34 11.3 11.24 11.19 11.13 11.07 11 10.94 10.87 10.81 10.74 10.67 10.6 10.53 10.46 10.38
15.87 15.56 15.23 14.89 14.52 14.14 13.75 13.35 12.95 12.55 12.16 11.78 11.42 11.08 10.78 10.51 10.27 10.08 9.93 9.83 9.76 9.74 9.75 9.8 9.88 9.98 10.1 10.23 10.37 10.51 10.65 10.78 10.9 11.01 11.1 11.18 11.24 11.28 11.31 11.32 11.32 11.3 11.28 11.25 11.21 11.17 11.12 11.06 11.01 10.95 10.9 10.84 10.78 10.72 10.66 10.59 10.53 10.46 10.4 10.33
15.82 15.5 15.17 14.82 14.44 14.06 13.66 13.25 12.84 12.43 12.02 11.63 11.27 10.92 10.61 10.33 10.09 9.89 9.74 9.63 9.57 9.54 9.56 9.61 9.69 9.79 9.92 10.05 10.19 10.34 10.48 10.61 10.74 10.85 10.94 11.02 11.08 11.12 11.15 11.16 11.16 11.15 11.13 11.1 11.07 11.02 10.98 10.93 10.88 10.83 10.78 10.73 10.68 10.62 10.57 10.51 10.45 10.39 10.33 10.27
15.78 15.46 15.12 14.76 14.38 13.99 13.58 13.17 12.75 12.33 11.92 11.52 11.15 10.8 10.48 10.19 9.95 9.75 9.59 9.48 9.41 9.39 9.4 9.45 9.53 9.63 9.76 9.89 10.03 10.18 10.32 10.45 10.58 10.68 10.78 10.85 10.91 10.96 10.99 11 11 10.99 10.97 10.94 10.91 10.87 10.83 10.79 10.75 10.7 10.65 10.61 10.56 10.52 10.47 10.42 10.37 10.32 10.26 10.2
15.75 15.43 15.09 14.73 14.34 13.94 13.53 13.11 12.69 12.27 11.85 11.45 11.07 10.71 10.39 10.1 9.85 9.65 9.49 9.37 9.3 9.27 9.28 9.33 9.41 9.51 9.63 9.76 9.9 10.04 10.18 10.31 10.43 10.53 10.62 10.69 10.75 10.79 10.82 10.83 10.83 10.82 10.8 10.78 10.75 10.71 10.67 10.64 10.6 10.56 10.52 10.48 10.44 10.4 10.36 10.32 10.28 10.23 10.19 10.13
15.74 15.42 15.07 14.71 14.32 13.92 13.51 13.08 12.66 12.23 11.82 11.41 11.03 10.67 10.34 10.05 9.8 9.59 9.43 9.31 9.23 9.2 9.21 9.25 9.32 9.41 9.53 9.65 9.79 9.92 10.05 10.17 10.29 10.39 10.47 10.54 10.59 10.63 10.65 10.66 10.65 10.64 10.62 10.6 10.57 10.54 10.51 10.47 10.44 10.41 10.38 10.35 10.31 10.28 10.25 10.22 10.18 10.14 10.1 10.06
15.73 15.41 15.07 14.7 14.32 13.92 13.51 13.09 12.66 12.24 11.82 11.41 11.03 10.67 10.34 10.05 9.8 9.58 9.42 9.29 9.21 9.17 9.17 9.21 9.27 9.36 9.46 9.58 9.7 9.82 9.94 10.06 10.16 10.25 10.32 10.38 10.43 10.46 10.47 10.48 10.47 10.46 10.44 10.42 10.39 10.36 10.33 10.3 10.27 10.25 10.22 10.2 10.18 10.15 10.13 10.11 10.08 10.05 10.02 9.98
15.74 15.42 15.08 14.72 14.34 13.94 13.53 13.11 12.69 12.27 11.86 11.46 11.07 10.71 10.39 10.09 9.84 9.62 9.45 9.32 9.24 9.19 9.18 9.21 9.26 9.33 9.43 9.53 9.64 9.75 9.86 9.96 10.05 10.12 10.19 10.23 10.27 10.29 10.3 10.3 10.29 10.27 10.25 10.22 10.2 10.17 10.15 10.12 10.1 10.08 10.06 10.05 10.03 10.02 10.01 9.99 9.97 9.95 9.93 9.9
15.76 15.44 15.11 14.75 14.38 13.98 13.58 13.17 12.75 12.34 11.93 11.53 11.15 10.8 10.47 10.18 9.92 9.71 9.53 9.4 9.3 9.25 9.23 9.24 9.28 9.34 9.42 9.51 9.6 9.7 9.79 9.87 9.95 10.01 10.06 10.09 10.11 10.12 10.12 10.11 10.1 10.08 10.05 10.03 10 9.98 9.95 9.94 9.92 9.91 9.9 9.89 9.89 9.88 9.88 9.87 9.86 9.85 9.84 9.82
15.78 15.47 15.14 14.8 14.43 14.05 13.65 13.25 12.84 12.44 12.03 11.64 11.27 10.92 10.6 10.31 10.05 9.83 9.65 9.51 9.41 9.35 9.32 9.32 9.34 9.39 9.45 9.52 9.59 9.67 9.74 9.8 9.86 9.9 9.93 9.95 9.96 9.96 9.95 9.93 9.91 9.88 9.85 9.82 9.8 9.78 9.76 9.74 9.73 9.73 9.73 9.73 9.73 9.74 9.74 9.75 9.75 9.75 9.74 9.73
15.82 15.52 15.2 14.86 14.5 14.13 13.75 13.35 12.96 12.56 12.17 11.79 11.42 11.08 10.76 10.47 10.22 10 9.82 9.67 9.56 9.49 9.44 9.43 9.43 9.46 9.5 9.55 9.6 9.66 9.71 9.75 9.78 9.81 9.82 9.82 9.82 9.8 9.78 9.75 9.72 9.68 9.65 9.62 9.6 9.57 9.56 9.55 9.54 9.55 9.55 9.56 9.58 9.59 9.61 9.62 9.63 9.64 9.64 9.64
15.86 15.57 15.26 14.93 14.59 14.23 13.85 13.47 13.09 12.71 12.33 11.96 11.6 11.27 10.95 10.67 10.42 10.2 10.01 9.86 9.74 9.65 9.6 9.56 9.55 9.56 9.58 9.6 9.63 9.66 9.69 9.71 9.72 9.72 9.72 9.7 9.68 9.64 9.61 9.57 9.53 9.49 9.45 9.42 9.39 9.37 9.36 9.35 9.35 9.36 9.38 9.4 9.42 9.44 9.47 9.49 9.51 9.53 9.55 9.55
15.91 15.63 15.33 15.01 14.68 14.34 13.98 13.61 13.24 12.87 12.51 12.15 11.8 11.48 11.17 10.89 10.64 10.42 10.23 10.07 9.95 9.85 9.78 9.73 9.7 9.68 9.68 9.68 9.68 9.69 9.69 9.68 9.67 9.65 9.62 9.59 9.54 9.49 9.44 9.39 9.34 9.29 9.25 9.22 9.19 9.17 9.16 9.16 9.17 9.18 9.2 9.23 9.26 9.29 9.33 9.36 9.4 9.42 9.45 9.47
15.97 15.7 15.41 15.11 14.79 14.46 14.11 13.76 13.41 13.05 12.7 12.36 12.03 11.71 11.41 11.14 10.89 10.67 10.48 10.31 10.18 10.06 9.98 9.91 9.86 9.82 9.79 9.77 9.75 9.73 9.7 9.67 9.63 9.59 9.54 9.48 9.42 9.35 9.29 9.22 9.16 9.11 9.06 9.02 8.99 8.97 8.96 8.97 8.98 9 9.03 9.07 9.11 9.15 9.19 9.24 9.28 9.32 9.35 9.38
16.02 15.77 15.49 15.2 14.9 14.58 14.26 13.92 13.59 13.25 12.91 12.58 12.26 11.96 11.67 11.4 11.16 10.93 10.74 10.57 10.42 10.3 10.19 10.11 10.04 9.98 9.92 9.87 9.83 9.78 9.72 9.67 9.6 9.53 9.46 9.38 9.3 9.22 9.14 9.06 8.99 8.93 8.88 8.83 8.8 8.78 8.78 8.78 8.8 8.83 8.86 8.91 8.96 9.01 9.06 9.12 9.17 9.22 9.26 9.29
16.08 15.84 15.58 15.3 15.01 14.71 14.41 14.09 13.77 13.45 13.13 12.81 12.5 12.21 11.93 11.67 11.43 11.21 11.01 10.83 10.68 10.54 10.42 10.32 10.23 10.14 10.06 9.99 9.92 9.84 9.76 9.68 9.59 9.49 9.4 9.3 9.2 9.1 9 8.91 8.83 8.76 8.7 8.65 8.62 8.6 8.6 8.61 8.63 8.66 8.71 8.76 8.81 8.88 8.94 9 9.06 9.12 9.17 9.21
16.15 15.91 15.66 15.4 15.13 14.85 14.56 14.26 13.95 13.65 13.34 13.04 12.75 12.47 12.2 11.95 11.71 11.49 11.29 11.11 10.94 10.79 10.66 10.53 10.42 10.31 10.21 10.11 10.01 9.91 9.8 9.69 9.58 9.46 9.34 9.22 9.1 8.99 8.88 8.78 8.68 8.61 8.54 8.49 8.45 8.44 8.43 8.44 8.47 8.51 8.56 8.62 8.68 8.75 8.82 8.89 8.96 9.03 9.08 9.14
16.21 15.98 15.75 15.5 15.25 14.98 14.7 14.42 14.14 13.85 13.56 13.28 13 12.73 12.47 12.22 11.98 11.77 11.56 11.38 11.2 11.04 10.89 10.75 10.62 10.49 10.37 10.24 10.12 9.99 9.86 9.72 9.58 9.44 9.3 9.16 9.02 8.89 8.77 8.65 8.55 8.47 8.39 8.34 8.3 8.28 8.28 8.3 8.32 8.37 8.42 8.49 8.56 8.64 8.71 8.79 8.87 8.94 9.01 9.06
16.27 16.05 15.83 15.6 15.36 15.11 14.85 14.58 14.31 14.04 13.77 13.5 13.23 12.98 12.73 12.49 12.26 12.04 11.83 11.64 11.46 11.29 11.13 10.97 10.82 10.67 10.52 10.38 10.23 10.07 9.92 9.76 9.6 9.44 9.27 9.11 8.96 8.81 8.68 8.55 8.44 8.34 8.27 8.21 8.17 8.15 8.15 8.16 8.2 8.24 8.3 8.37 8.45 8.53 8.62 8.71 8.79 8.87 8.94 9
16.32 16.12 15.91 15.69 15.47 15.23 14.99 14.74 14.49 14.23 13.97 13.72 13.46 13.22 12.98 12.74 12.52 12.3 12.1 11.9 11.71 11.53 11.35 11.18 11.01 10.85 10.68 10.51 10.34 10.16 9.98 9.8 9.62 9.44 9.26 9.08 8.91 8.75 8.6 8.47 8.35 8.24 8.16 8.1 8.06 8.04 8.03 8.05 8.09 8.14 8.2 8.28 8.36 8.45 8.54 8.63 8.72 8.8 8.88 8.95
16.37 16.19 15.99 15.78 15.57 15.35 15.12 14.88 14.65 14.41 14.16 13.92 13.68 13.45 13.21 12.99 12.77 12.55 12.35 12.15 11.95 11.76 11.57 11.39 11.21 11.02 10.83 10.65 10.45 10.26 10.06 9.86 9.66 9.46 9.26 9.07 8.88 8.71 8.55 8.4 8.27 8.16 8.08 8.01 7.97 7.94 7.94 7.96 8 8.05 8.12 8.2 8.28 8.38 8.47 8.57 8.66 8.75 8.83 8.9
16.42 16.24 16.06 15.86 15.66 15.45 15.24 15.02 14.8 14.57 14.34 14.11 13.89 13.66 13.44 13.22 13 12.79 12.58 12.38 12.18 11.98 11.78 11.59 11.39 11.19 10.99 10.78 10.57 10.36 10.14 9.92 9.7 9.49 9.27 9.07 8.87 8.68 8.51 8.36 8.22 8.11 8.02 7.95 7.9 7.88 7.88 7.89 7.93 7.99 8.06 8.14 8.23 8.32 8.42 8.52 8.61 8.7 8.79 8.87
16.47 16.3 16.12 15.94 15.75 15.55 15.35 15.15 14.94 14.72 14.51 14.29 14.07 13.86 13.64 13.43 13.22 13.01 12.8 12.6 12.39 12.19 11.98 11.77 11.56 11.35 11.13 10.91 10.69 10.46 10.23 9.99 9.76 9.53 9.3 9.08 8.88 8.68 8.5 8.34 8.2 8.08 7.98 7.91 7.86 7.83 7.83 7.85 7.89 7.94 8.01 8.1 8.19 8.28 8.38 8.48 8.58 8.68 8.76 8.84
16.5 16.34 16.18 16 15.83 15.64 15.45 15.26 15.06 14.86 14.66 14.45 14.24 14.04 13.83 13.62 13.41 13.21 13 12.79 12.59 12.38 12.17 11.95 11.73 11.51 11.28 11.04 10.8 10.56 10.32 10.07 9.83 9.58 9.35 9.12 8.9 8.7 8.51 8.35 8.2 8.07 7.97 7.9 7.85 7.82 7.82 7.83 7.87 7.93 8 8.08 8.17 8.26 8.37 8.47 8.57 8.66 8.75 8.82
16.54 16.38 16.23 16.06 15.89 15.72 15.54 15.36 15.17 14.98 14.79 14.59 14.4 14.2 14 13.8 13.59 13.39 13.19 12.98 12.77 12.56 12.34 12.12 11.89 11.66 11.42 11.17 10.92 10.67 10.42 10.16 9.91 9.65 9.41 9.17 8.95 8.74 8.55 8.38 8.22 8.1 7.99 7.91 7.86 7.83 7.82 7.84 7.88 7.93 8 8.08 8.17 8.27 8.36 8.47 8.56 8.66 8.74 8.82
16.57 16.42 16.27 16.11 15.96 15.79 15.62 15.45 15.27 15.09 14.91 14.72 14.53 14.34 14.15 13.95 13.76 13.56 13.35 13.14 12.93 12.72 12.5 12.27 12.04 11.8 11.55 11.3 11.04 10.78 10.52 10.26 9.99 9.74 9.49 9.24 9.02 8.8 8.6 8.43 8.27 8.14 8.04 7.95 7.9 7.87 7.86 7.87 7.91 7.96 8.02 8.1 8.19 8.28 8.38 8.48 8.57 8.67 8.75 8.83
16.59 16.45 16.31 16.16 16.01 15.85 15.69 15.53 15.36 15.19 15.01 14.83 14.65 14.47 14.28 14.09 13.9 13.7 13.5 13.29 13.08 12.87 12.64 12.41 12.18 11.93 11.68 11.43 11.16 10.9 10.63 10.36 10.09 9.83 9.58 9.33 9.1 8.88 8.68 8.5 8.35 8.21 8.1 8.02 7.96 7.93 7.92 7.93 7.96 8.01 8.07 8.15 8.23 8.32 8.41 8.51 8.6 8.69 8.77 8.84
16.61 16.48 16.34 16.2 16.05 15.9 15.75 15.59 15.43 15.27 15.1 14.93 14.76 14.58 14.4 14.21 14.03 13.83 13.63 13.43 13.22 13 12.78 12.55 12.31 12.06 11.81 11.55 11.28 11.02 10.74 10.47 10.21 9.94 9.68 9.44 9.2 8.98 8.78 8.6 8.44 8.31 8.2 8.11 8.05 8.01 8 8.01 8.03 8.08 8.14 8.21 8.29 8.37 8.46 8.55 8.64 8.72 8.8 8.87
16.63 16.5 16.36 16.23 16.09 15.94 15.8 15.65 15.49 15.34 15.18 15.01 14.85 14.68 14.5 14.32 14.14 13.95 13.75 13.55 13.34 13.13 12.9 12.67 12.43 12.19 11.93 11.67 11.41 11.14 10.87 10.59 10.33 10.06 9.8 9.56 9.32 9.1 8.9 8.72 8.56 8.43 8.31 8.23 8.16 8.12 8.1 8.11 8.13 8.17 8.22 8.29 8.36 8.44 8.53 8.61 8.69 8.77 8.84 8.9
16.64 16.51 16.38 16.25 16.12 15.98 15.84 15.69 15.55 15.4 15.24 15.09 14.92 14.76 14.59 14.41 14.23 14.05 13.86 13.66 13.45 13.24 13.02 12.79 12.55 12.3 12.05 11.79 11.53 11.26 10.99 10.72 10.45 10.19 9.94 9.69 9.46 9.24 9.04 8.86 8.7 8.56 8.45 8.36 8.29 8.25 8.23 8.23 8.25 8.28 8.33 8.39 8.45 8.53 8.6 8.68 8.75 8.82 8.89 8.95
16.65 16.52 16.4 16.27 16.14 16.01 15.87 15.73 15.59 15.45 15.3 15.14 14.99 14.83 14.66 14.49 14.32 14.14 13.95 13.75 13.55 13.34 13.12 12.89 12.66 12.42 12.17 11.91 11.65 11.39 11.12 10.85 10.59 10.33 10.08 9.84 9.61 9.39 9.19 9.01 8.85 8.72 8.6 8.51 8.44 8.4 8.37 8.37 8.38 8.4 8.45 8.5 8.56 8.62 8.69 8.76 8.83 8.89 8.95 9
16.65 16.53 16.41 16.28 16.16 16.03 15.9 15.76 15.63 15.49 15.34 15.19 15.04 14.89 14.73 14.56 14.39 14.21 14.03 13.84 13.64 13.43 13.22 12.99 12.76 12.52 12.28 12.03 11.77 11.51 11.25 10.99 10.73 10.48 10.23 9.99 9.77 9.55 9.36 9.18 9.02 8.89 8.77 8.68 8.61 8.56 8.53 8.52 8.52 8.54 8.58 8.62 8.67 8.73 8.79 8.85 8.91 8.96 9.01 9.05
16.66 16.54 16.42 16.3 16.17 16.05 15.92 15.79 15.65 15.52 15.38 15.23 15.09 14.94 14.78 14.62 14.45 14.28 14.1 13.91 13.72 13.52 13.31 13.09 12.86 12.63 12.39 12.14 11.89 11.64 11.38 11.13 10.88 10.63 10.39 10.15 9.93 9.73 9.53 9.36 9.2 9.07 8.95 8.86 8.79 8.73 8.7 8.68 8.68 8.69 8.72 8.75 8.8 8.84 8.89 8.94 8.99 9.04 9.08 9.11
16.66 16.54 16.42 16.3 16.18 16.06 15.93 15.8 15.68 15.54 15.41 15.27 15.12 14.98 14.82 14.67 14.51 14.34 14.16 13.98 13.79 13.59 13.39 13.18 12.96 12.73 12.5 12.26 12.01 11.77 11.52 11.27 11.02 10.78 10.55 10.32 10.11 9.91 9.72 9.55 9.39 9.26 9.14 9.05 8.97 8.91 8.87 8.85 8.84 8.85 8.87 8.89 8.93 8.96 9.01 9.05 9.09 9.12 9.15 9.18
16.66 16.54 16.42 16.31 16.19 16.07 15.94 15.82 15.69 15.56 15.43 15.29 15.15 15.01 14.86 14.71 14.55 14.39 14.22 14.04 13.86 13.66 13.46 13.26 13.04 12.82 12.6 12.37 12.13 11.89 11.65 11.41 11.17 10.94 10.71 10.49 10.29 10.09 9.91 9.74 9.59 9.45 9.34 9.24 9.16 9.1 9.06 9.03 9.02 9.01 9.02 9.04 9.06 9.09 9.12 9.15 9.18 9.21 9.23 9.25
16.65 16.54 16.42 16.31 16.19 16.07 15.95 15.83 15.7 15.58 15.45 15.31 15.18 15.04 14.89 14.74 14.59 14.43 14.26 14.09 13.91 13.73 13.53 13.33 13.13 12.92 12.7 12.47 12.25 12.02 11.79 11.55 11.33 11.1 10.88 10.67 10.47 10.28 10.1 9.93 9.79 9.65 9.54 9.44 9.36 9.29 9.25 9.21 9.19 9.18 9.18 9.19 9.2 9.22 9.24 9.26 9.28 9.3 9.31 9.32
16.65 16.54 16.42 16.31 16.19 16.07 15.95 15.83 15.71 15.59 15.46 15.33 15.2 15.06 14.92 14.77 14.62 14.47 14.31 14.14 13.97 13.79 13.6 13.41 13.21 13 12.79 12.58 12.36 12.14 11.91 11.69 11.47 11.26 11.04 10.84 10.65 10.46 10.29 10.13 9.98 9.85 9.74 9.64 9.56 9.49 9.43 9.39 9.36 9.35 9.34 9.34 9.34 9.35 9.36 9.37 9.38 9.38 9.39 9.39
16.64 16.53 16.42 16.3 16.19 16.07 15.96 15.84 15.72 15.59 15.47 15.34 15.21 15.08 14.94 14.8 14.65 14.5 14.34 14.18 14.01 13.84 13.66 13.47 13.28 13.09 12.88 12.68 12.47 12.25 12.04 11.83 11.62 11.41 11.21 11.01 10.82 10.64 10.48 10.32 10.18 10.05 9.94 9.83 9.75 9.68 9.62 9.57 9.54 9.51 9.49 9.48 9.48 9.48 9.48 9.48 9.47 9.47 9.46 9.45
16.64 16.52 16.41 16.3 16.19 16.07 15.96 15.84 15.72 15.6 15.48 15.35 15.22 15.09 14.96 14.82 14.68 14.53 14.38 14.22 14.06 13.89 13.72 13.54 13.35 13.16 12.97 12.77 12.57 12.37 12.16 11.96 11.76 11.56 11.36 11.18 10.99 10.82 10.66 10.51 10.37 10.24 10.13 10.03 9.94 9.86 9.8 9.75 9.71 9.67 9.65 9.63 9.61 9.6 9.59 9.58 9.57 9.56 9.54 9.52
16.63 16.52 16.41 16.29 16.18 16.07 15.95 15.84 15.72 15.6 15.48 15.36 15.23 15.1 14.97 14.84 14.7 14.55 14.41 14.25 14.1 13.93 13.77 13.59 13.42 13.23 13.05 12.86 12.67 12.47 12.28 12.08 11.89 11.7 11.51 11.33 11.16 10.99 10.83 10.69 10.55 10.43 10.31 10.21 10.12 10.04 9.98 9.92 9.87 9.83 9.79 9.77 9.74 9.72 9.7 9.68 9.66 9.64 9.61 9.59
16.62 16.51 16.4 16.29 16.18 16.06 15.95 15.83 15.72 15.6 15.48 15.36 15.24 15.11 14.98 14.85 14.71 14.57 14.43 14.28 14.13 13.97 13.81 13.65 13.48 13.3 13.12 12.94 12.76 12.57 12.39 12.2 12.02 11.83 11.66 11.48 11.32 11.16 11 10.86 10.73 10.6 10.49 10.39 10.3 10.21 10.14 10.08 10.02 9.98 9.94 9.9 9.87 9.83 9.81 9.78 9.75 9.72 9.68 9.65
16.61 16.5 16.39 16.28 16.17 16.06 15.95 15.83 15.72 15.6 15.48 15.36 15.24 15.12 14.99 14.86 14.73 14.59 14.45 14.31 14.16 14.01 13.85 13.69 13.53 13.36 13.19 13.02 12.84 12.67 12.49 12.31 12.14 11.96 11.79 11.62 11.46 11.31 11.16 11.02 10.89 10.77 10.66 10.55 10.46 10.38 10.3 10.23 10.17 10.12 10.07 10.02 9.98 9.94 9.91 9.87 9.83 9.79 9.75 9.7
16.6 16.49 16.38 16.27 16.16 16.05 15.94 15.83 15.71 15.6 15.48 15.36 15.24 15.12 15 14.87 14.74 14.61 14.47 14.33 14.19 14.04 13.89 13.74 13.58 13.42 13.26 13.09 12.92 12.75 12.58 12.41 12.25 12.08 11.92 11.76 11.6 11.45 11.31 11.17 11.04 10.92 10.81 10.71 10.61 10.53 10.45 10.37 10.31 10.25 10.19 10.14 10.09 10.04 10 9.95 9.91 9.86 9.81 9.76
