ncols 60
nrows 60
xllcorner 300000
yllcorner 4100000
cellsize 1000
NODATA_value -9999
422.9 444.8 467.2 489.9 512.9 536.3 559.9 583.6 607.4 631.1 654.7 677.9 700.8 723.2 745 766 786.3 805.7 824.2 841.9 858.6 874.5 889.6 904 917.8 931.1 944 956.6 969.1 981.5 993.9 1006.5 1019.3 1032.4 1045.9 1059.7 1073.9 1088.4 1103.4 1118.7 1134.4 1150.4 1166.7 1183.2 1200 1216.9 1234 1251.3 1268.7 1286.1 1303.7 1321.3 1338.9 1356.6 1374.4 1392.1 1409.9 1427.7 1445.5 1463.3
427.8 450.6 473.9 497.6 521.8 546.3 571.1 596 621.1 646 670.8 695.2 719.2 742.5 765.1 786.8 807.5 827.2 845.9 863.5 879.9 895.4 909.9 923.5 936.4 948.7 960.5 972 983.2 994.5 1005.7 1017.2 1028.9 1041 1053.4 1066.3 1079.7 1093.5 1107.9 1122.6 1137.8 1153.3 1169.2 1185.5 1202 1218.7 1235.6 1252.7 1269.9 1287.3 1304.7 1322.2 1339.8 1357.4 1375.1 1392.7 1410.5 1428.2 1446 1463.7
433.5 457.3 481.7 506.6 532 557.8 584 610.4 636.8 663.2 689.4 715.2 740.3 764.7 788.3 810.7 832.1 852.1 870.9 888.4 904.6 919.5 933.3 946.1 958 969.1 979.6 989.8 999.7 1009.5 1019.4 1029.6 1040 1050.9 1062.2 1074.1 1086.5 1099.5 1113.1 1127.2 1141.8 1156.9 1172.3 1188.2 1204.4 1220.8 1237.5 1254.4 1271.5 1288.7 1306 1323.4 1340.8 1358.4 1375.9 1393.5 1411.2 1428.8 1446.5 1464.2
440 464.9 490.5 516.8 543.6 571 598.7 626.8 654.9 682.9 710.6 737.9 764.5 790.1 814.7 838.1 860 880.5 899.5 916.9 932.7 947.1 960.1 971.9 982.6 992.4 1001.5 1010.1 1018.5 1026.8 1035.2 1043.8 1052.8 1062.3 1072.4 1083.1 1094.5 1106.5 1119.2 1132.6 1146.5 1161 1176 1191.5 1207.3 1223.4 1239.9 1256.5 1273.4 1290.4 1307.6 1324.8 1342.1 1359.5 1377 1394.5 1412 1429.6 1447.2 1464.9
447.3 473.5 500.5 528.3 556.7 585.8 615.4 645.2 675.2 705.1 734.6 763.5 791.7 818.8 844.6 868.9 891.6 912.6 931.7 949 964.5 978.2 990.3 1001 1010.4 1018.7 1026.2 1033.2 1039.8 1046.4 1053 1059.9 1067.3 1075.3 1084 1093.4 1103.6 1114.6 1126.3 1138.8 1152.1 1165.9 1180.4 1195.3 1210.7 1226.5 1242.7 1259.1 1275.7 1292.5 1309.5 1326.6 1343.7 1361 1378.3 1395.7 1413.1 1430.6 1448.1 1465.7
455.5 483.1 511.6 541.1 571.4 602.4 633.9 665.8 697.8 729.7 761.3 792.1 822 850.7 877.8 903.3 926.8 948.3 967.7 984.9 999.9 1013 1024.1 1033.5 1041.4 1048.1 1053.9 1059 1063.7 1068.3 1073 1078.1 1083.7 1090 1097.1 1105.1 1113.9 1123.7 1134.5 1146 1158.4 1171.6 1185.4 1199.9 1214.8 1230.3 1246 1262.1 1278.5 1295.1 1311.8 1328.7 1345.7 1362.8 1380 1397.2 1414.5 1431.8 1449.2 1466.6
464.5 493.6 523.9 555.2 587.5 620.6 654.3 688.4 722.7 756.9 790.6 823.6 855.4 885.8 914.5 941.2 965.6 987.7 1007.3 1024.4 1039 1051.3 1061.3 1069.4 1075.7 1080.7 1084.5 1087.5 1090.2 1092.6 1095.3 1098.3 1102 1106.4 1111.8 1118.2 1125.6 1134.1 1143.7 1154.3 1165.8 1178.2 1191.3 1205.2 1219.7 1234.6 1250 1265.8 1281.9 1298.2 1314.7 1331.3 1348.1 1365 1382 1399 1416.1 1433.3 1450.5 1467.8
474.3 505.1 537.2 570.5 604.9 640.3 676.4 713 749.8 786.5 822.6 857.8 891.7 924 954.3 982.3 1007.8 1030.5 1050.4 1067.4 1081.5 1092.9 1101.8 1108.5 1113.1 1116.1 1117.9 1118.7 1119.1 1119.3 1119.7 1120.5 1122.1 1124.6 1128.1 1132.8 1138.7 1145.8 1154.1 1163.6 1174.2 1185.7 1198.2 1211.4 1225.3 1239.8 1254.8 1270.2 1285.9 1301.9 1318.1 1334.5 1351 1367.6 1384.4 1401.2 1418.1 1435.1 1452.1 1469.2
484.7 517.4 551.4 586.9 623.7 661.5 700.2 739.4 778.9 818.1 856.8 894.5 930.7 965 997 1026.5 1053 1076.5 1096.6 1113.5 1127.2 1137.8 1145.4 1150.5 1153.3 1154.3 1153.9 1152.4 1150.4 1148.2 1146.2 1144.7 1144 1144.4 1146 1148.8 1153.1 1158.8 1165.8 1174.1 1183.7 1194.3 1206 1218.5 1231.8 1245.8 1260.3 1275.3 1290.6 1306.3 1322.1 1338.2 1354.4 1370.8 1387.3 1403.9 1420.5 1437.3 1454.1 1471
495.8 530.3 566.5 604.3 643.5 683.9 725.3 767.3 809.6 851.6 893 933.3 971.9 1008.4 1042.3 1073.2 1100.9 1125.1 1145.6 1162.5 1175.6 1185.3 1191.7 1195.2 1196.1 1195 1192.2 1188.3 1183.8 1179 1174.5 1170.6 1167.7 1165.8 1165.4 1166.4 1168.9 1173.1 1178.7 1185.8 1194.3 1204 1214.9 1226.7 1239.4 1252.8 1266.8 1281.3 1296.2 1311.4 1326.9 1342.7 1358.6 1374.6 1390.8 1407 1423.4 1439.8 1456.4 1473.1
507.3 543.9 582.3 622.4 664.2 707.3 751.5 796.4 841.6 886.6 930.8 973.7 1014.8 1053.6 1089.5 1122 1150.9 1175.9 1196.8 1213.6 1226.2 1235 1240.1 1241.9 1240.9 1237.6 1232.5 1226.1 1219 1211.7 1204.6 1198.2 1192.9 1188.8 1186.2 1185.3 1186.2 1188.7 1193 1198.8 1206.2 1215 1225 1236 1248 1260.8 1274.3 1288.3 1302.7 1317.5 1332.6 1347.9 1363.4 1379.1 1394.9 1410.8 1426.8 1442.9 1459.2 1475.5
519.2 557.8 598.4 641 685.4 731.3 778.4 826.3 874.5 922.4 969.6 1015.3 1059 1100 1137.9 1172.2 1202.4 1228.2 1249.5 1266.2 1278.4 1286.2 1290 1290.2 1287.3 1281.8 1274.3 1265.4 1255.7 1245.7 1236.1 1227.2 1219.4 1213.1 1208.5 1205.6 1204.7 1205.7 1208.5 1213.1 1219.4 1227.2 1236.3 1246.6 1257.9 1270.1 1282.9 1296.4 1310.3 1324.6 1339.2 1354.1 1369.1 1384.3 1399.7 1415.2 1430.8 1446.6 1462.4 1478.4
531.1 571.8 614.7 659.8 706.8 755.5 805.6 856.5 907.7 958.7 1008.8 1057.3 1103.6 1147 1187 1222.9 1254.4 1281.1 1302.8 1319.5 1331.2 1338.2 1340.7 1339.3 1334.5 1326.8 1316.9 1305.5 1293.3 1280.8 1268.6 1257.3 1247.1 1238.6 1231.9 1227.2 1224.5 1223.9 1225.4 1228.7 1233.9 1240.7 1249 1258.5 1269.1 1280.6 1292.8 1305.7 1319.1 1332.8 1346.9 1361.2 1375.7 1390.5 1405.3 1420.3 1435.5 1450.8 1466.3 1481.9
543 585.7 630.8 678.4 728 779.5 832.5 886.4 940.6 994.6 1047.6 1098.9 1147.9 1193.6 1235.6 1273.3 1306 1333.6 1355.8 1372.5 1383.8 1390 1391.4 1388.4 1381.7 1372 1359.8 1346.1 1331.4 1316.4 1301.8 1288.1 1275.7 1265 1256.3 1249.8 1245.5 1243.4 1243.5 1245.7 1249.8 1255.7 1263 1271.8 1281.6 1292.5 1304.1 1316.3 1329.1 1342.2 1355.7 1369.5 1383.4 1397.5 1411.9 1426.3 1440.9 1455.7 1470.7 1485.8
554.5 599.2 646.5 696.4 748.6 802.9 858.6 915.4 972.6 1029.5 1085.4 1139.5 1190.9 1239 1283 1322.3 1356.4 1384.9 1407.6 1424.4 1435.4 1440.8 1441 1436.6 1428.2 1416.5 1402.3 1386.3 1369.3 1352 1335.2 1319.2 1304.7 1292.1 1281.6 1273.3 1267.5 1264.1 1262.9 1264 1267.1 1272 1278.6 1286.6 1295.7 1305.8 1316.8 1328.4 1340.5 1353 1365.8 1378.9 1392.2 1405.7 1419.4 1433.2 1447.2 1461.4 1475.8 1490.4
565.4 612 661.4 713.6 768.2 825 883.5 943 1003 1062.8 1121.4 1178 1231.9 1282.2 1328.2 1369.1 1404.5 1433.9 1457.1 1474 1484.7 1489.5 1488.7 1483.1 1473.2 1459.7 1443.6 1425.6 1406.6 1387.2 1368.3 1350.3 1334 1319.6 1307.4 1297.7 1290.5 1285.8 1283.6 1283.6 1285.8 1289.9 1295.7 1302.9 1311.4 1320.8 1331 1341.9 1353.4 1365.2 1377.3 1389.6 1402.2 1415 1427.9 1441 1454.4 1467.9 1481.6 1495.6
575.5 623.8 675.2 729.4 786.3 845.5 906.5 968.6 1031.2 1093.5 1154.6 1213.7 1269.9 1322.3 1370.1 1412.6 1449.2 1479.5 1503.2 1520.3 1530.8 1535.1 1533.6 1526.9 1515.6 1500.7 1483 1463.3 1442.4 1421.3 1400.6 1381 1363 1347.1 1333.6 1322.6 1314.2 1308.5 1305.3 1304.5 1305.9 1309.3 1314.4 1320.9 1328.6 1337.4 1346.9 1357.1 1367.8 1378.8 1390.2 1401.8 1413.5 1425.5 1437.6 1449.9 1462.5 1475.2 1488.2 1501.5
584.5 634.4 687.5 743.6 802.6 863.9 927.1 991.5 1056.4 1121.1 1184.5 1245.8 1304 1358.3 1407.8 1451.7 1489.5 1520.6 1544.9 1562.3 1572.8 1576.7 1574.6 1567.1 1554.8 1538.7 1519.7 1498.6 1476.4 1453.8 1431.7 1410.8 1391.6 1374.5 1359.9 1347.9 1338.7 1332.1 1328.2 1326.7 1327.5 1330.2 1334.6 1340.5 1347.6 1355.7 1364.6 1374 1383.9 1394.1 1404.6 1415.3 1426.2 1437.3 1448.5 1459.9 1471.6 1483.5 1495.7 1508.2
592.3 643.5 698.1 755.8 816.5 879.6 944.8 1011.2 1078.1 1144.8 1210.2 1273.4 1333.5 1389.4 1440.4 1485.6 1524.4 1556.4 1581.3 1599 1609.6 1613.4 1610.9 1602.8 1589.9 1573 1553 1531 1507.8 1484.2 1461.2 1439.4 1419.3 1401.4 1386.1 1373.4 1363.6 1356.5 1352.1 1350.1 1350.3 1352.6 1356.5 1361.8 1368.4 1375.8 1383.9 1392.6 1401.7 1411 1420.6 1430.4 1440.3 1450.4 1460.6 1471.1 1481.7 1492.7 1504 1515.6
598.5 650.9 706.6 765.7 827.8 892.4 959.1 1027.2 1095.8 1164.1 1231.2 1296 1357.5 1414.9 1467.1 1513.5 1553.3 1586 1611.5 1629.6 1640.4 1644.3 1641.7 1633.4 1620.2 1602.8 1582.4 1559.9 1536.1 1512.1 1488.6 1466.3 1445.8 1427.5 1411.9 1399 1388.8 1381.5 1376.8 1374.6 1374.5 1376.4 1380 1384.8 1390.8 1397.6 1405.1 1413 1421.2 1429.6 1438.3 1447 1455.8 1464.8 1474 1483.3 1493 1502.9 1513.2 1523.8
603.2 656.3 712.9 773 836.1 901.9 969.7 1039 1108.9 1178.5 1246.8 1312.8 1375.6 1434 1487.3 1534.6 1575.2 1608.8 1634.8 1653.4 1664.6 1668.8 1666.4 1658.2 1645 1627.7 1607.3 1584.7 1561 1536.9 1513.5 1491.2 1470.8 1452.7 1437.1 1424.3 1414.3 1407 1402.4 1400.1 1400 1401.7 1405 1409.5 1415 1421.2 1428 1435.1 1442.4 1449.9 1457.5 1465.1 1472.8 1480.6 1488.6 1496.8 1505.3 1514 1523.2 1532.8
606 659.6 716.9 777.5 841.3 907.8 976.4 1046.4 1117.1 1187.5 1256.7 1323.6 1387.1 1446.4 1500.5 1548.5 1589.9 1624 1650.7 1669.9 1681.6 1686.3 1684.5 1676.8 1664 1647.2 1627.3 1605.2 1582 1558.5 1535.6 1514 1494.1 1476.6 1461.6 1449.3 1439.8 1433 1428.6 1426.6 1426.6 1428.3 1431.5 1435.7 1440.8 1446.5 1452.6 1458.9 1465.4 1471.8 1478.3 1484.8 1491.2 1497.8 1504.5 1511.4 1518.6 1526.2 1534.1 1542.6
607 660.8 718.3 779.1 843.2 909.9 978.9 1049.3 1120.3 1191.1 1260.7 1328 1392 1451.7 1506.3 1554.9 1596.8 1631.5 1658.9 1678.7 1691.1 1696.6 1695.5 1688.7 1676.9 1661 1642.1 1621.1 1598.9 1576.6 1554.8 1534.3 1515.6 1499.1 1485.2 1473.9 1465.2 1459.1 1455.5 1453.9 1454.3 1456.2 1459.4 1463.5 1468.2 1473.4 1478.9 1484.4 1489.9 1495.3 1500.6 1505.8 1511 1516.3 1521.6 1527.1 1533 1539.2 1545.9 1553.1
606.2 659.8 717.1 777.9 841.7 908.4 977.1 1047.4 1118.3 1189.1 1258.6 1325.9 1390 1449.9 1504.7 1553.5 1595.8 1631.1 1659.1 1679.7 1693 1699.4 1699.5 1693.9 1683.4 1669 1651.6 1632.2 1611.7 1591 1570.9 1552 1535 1520.1 1507.7 1497.7 1490.4 1485.4 1482.7 1481.9 1482.9 1485.2 1488.5 1492.5 1497.1 1501.8 1506.6 1511.4 1515.9 1520.2 1524.3 1528.3 1532.1 1535.9 1539.8 1543.9 1548.3 1553.1 1558.4 1564.4
603.5 656.7 713.5 773.7 837 903.1 971.2 1040.9 1111.3 1181.5 1250.5 1317.4 1381.2 1440.9 1495.6 1544.6 1587.2 1622.9 1651.5 1672.9 1687.3 1694.9 1696.4 1692.4 1683.6 1671.1 1655.7 1638.4 1620.1 1601.7 1583.8 1567.2 1552.3 1539.5 1529 1520.9 1515.1 1511.6 1510.2 1510.4 1512.2 1515 1518.7 1522.8 1527.2 1531.5 1535.8 1539.7 1543.3 1546.5 1549.3 1551.9 1554.3 1556.6 1559 1561.5 1564.4 1567.7 1571.6 1576.2
599 651.5 707.4 766.8 829.1 894.2 961.4 1030 1099.4 1168.6 1236.7 1302.9 1366 1425.2 1479.6 1528.4 1571.1 1607.2 1636.4 1658.7 1674.2 1683.3 1686.5 1684.4 1677.8 1667.6 1654.7 1640 1624.4 1608.7 1593.6 1579.6 1567.4 1557.1 1549 1543.1 1539.4 1537.7 1537.7 1539.3 1542 1545.6 1549.7 1554 1558.3 1562.3 1566 1569.1 1571.7 1573.8 1575.4 1576.5 1577.4 1578.2 1579 1580 1581.3 1583 1585.5 1588.6
592.9 644.3 699.2 757.2 818.3 882 947.7 1015 1082.9 1150.8 1217.6 1282.6 1344.7 1403 1456.9 1505.4 1548.1 1584.4 1614.3 1637.5 1654.4 1665.1 1670.2 1670.3 1666.2 1658.8 1648.8 1637.1 1624.7 1612.2 1600.3 1589.5 1580.3 1573 1567.6 1564.3 1562.9 1563.3 1565.1 1568.2 1572.1 1576.6 1581.3 1585.9 1590.1 1593.9 1597 1599.4 1601 1601.9 1602.2 1602 1601.3 1600.5 1599.7 1599 1598.7 1598.9 1599.7 1601.4
585.3 635.4 688.8 745.4 804.8 866.8 930.8 996.2 1062.4 1128.5 1193.7 1257.1 1317.9 1375.2 1428.2 1476.2 1518.7 1555.3 1585.7 1610 1628.2 1640.8 1648 1650.7 1649.4 1645 1638.3 1630.1 1621.3 1612.4 1604.1 1596.9 1591.1 1587.1 1584.9 1584.4 1585.7 1588.3 1592.2 1597 1602.2 1607.7 1613.1 1618.1 1622.4 1626 1628.6 1630.2 1630.9 1630.6 1629.6 1627.9 1625.7 1623.3 1620.8 1618.5 1616.5 1615 1614.3 1614.5
576.4 625 676.8 731.5 789 849 910.9 974.2 1038.2 1102.3 1165.5 1227.2 1286.4 1342.3 1394.3 1441.6 1483.9 1520.6 1551.6 1577 1596.7 1611.1 1620.7 1626.1 1627.9 1626.9 1623.8 1619.4 1614.4 1609.5 1605.1 1601.8 1599.9 1599.5 1600.6 1603.3 1607.4 1612.6 1618.7 1625.3 1632.1 1638.7 1644.9 1650.3 1654.8 1658.1 1660.3 1661.2 1660.9 1659.6 1657.2 1654.1 1650.4 1646.3 1642.1 1638.1 1634.4 1631.4 1629 1627.7
566.5 613.4 663.2 716 771.3 829 888.5 949.5 1011.1 1072.8 1133.9 1193.5 1250.9 1305.3 1356 1402.6 1444.4 1481.3 1512.9 1539.2 1560.5 1577 1589 1597.3 1602.4 1604.9 1605.7 1605.3 1604.5 1603.8 1603.7 1604.6 1606.6 1610 1614.8 1620.8 1627.9 1635.9 1644.3 1652.9 1661.3 1669.2 1676.2 1682.2 1686.8 1690 1691.8 1692 1690.8 1688.3 1684.7 1680.1 1674.9 1669.2 1663.4 1657.7 1652.3 1647.6 1643.7 1640.8
555.7 600.7 648.6 699.1 752.1 807.3 864.3 922.6 981.7 1040.9 1099.5 1156.9 1212.2 1265 1314.4 1360 1401.4 1438.2 1470.4 1497.8 1520.6 1539.2 1553.8 1565.1 1573.6 1579.9 1584.7 1588.5 1592 1595.7 1600 1605.2 1611.4 1618.8 1627.4 1636.9 1647.1 1657.9 1668.7 1679.4 1689.5 1698.7 1706.6 1713.2 1718.1 1721.2 1722.6 1722.2 1720.1 1716.5 1711.6 1705.7 1698.9 1691.7 1684.2 1676.9 1669.9 1663.6 1658.1 1653.7
544.3 587.4 633.1 681.3 731.9 784.5 838.8 894.3 950.6 1007.1 1063.2 1118.2 1171.4 1222.3 1270.3 1314.9 1355.7 1392.5 1425.1 1453.6 1478 1498.7 1516 1530.3 1542.3 1552.4 1561.2 1569.4 1577.3 1585.5 1594.3 1603.9 1614.4 1625.9 1638.2 1651.3 1664.7 1678.3 1691.7 1704.5 1716.3 1726.8 1735.8 1742.9 1748.1 1751.2 1752.3 1751.3 1748.4 1743.7 1737.6 1730.3 1722.1 1713.4 1704.4 1695.5 1686.9 1679 1672.1 1666.2
532.6 573.7 617.2 663 711 760.9 812.4 865.1 918.6 972.3 1025.7 1078.2 1129.2 1178.2 1224.6 1268.2 1308.4 1345.1 1378.2 1407.6 1433.6 1456.4 1476.3 1493.7 1509.1 1523 1536 1548.4 1560.8 1573.5 1586.8 1600.8 1615.6 1631.1 1647.3 1663.9 1680.6 1697 1712.9 1727.8 1741.3 1753.2 1763.2 1771 1776.5 1779.6 1780.3 1778.8 1775.1 1769.5 1762.3 1753.8 1744.2 1734 1723.5 1713.1 1703.1 1693.7 1685.3 1678.1
520.7 559.8 601.1 644.5 689.9 737.1 785.8 835.6 886.2 937.1 987.8 1037.7 1086.5 1133.5 1178.4 1220.8 1260.4 1296.9 1330.4 1360.8 1388.3 1413.1 1435.5 1455.9 1474.8 1492.5 1509.4 1526.1 1542.9 1560 1577.7 1596 1615 1634.6 1654.5 1674.5 1694.4 1713.6 1731.9 1748.9 1764.2 1777.4 1788.4 1796.8 1802.7 1805.8 1806.4 1804.3 1800 1793.5 1785.2 1775.5 1764.7 1753.2 1741.3 1729.5 1718.1 1707.3 1697.6 1689.1
509 546 585.1 626.1 668.9 713.4 759.3 806.3 854 902.1 950.1 997.5 1044 1089.1 1132.4 1173.6 1212.5 1248.9 1282.7 1314 1343 1369.7 1394.6 1417.8 1439.9 1461.2 1482.1 1502.9 1523.9 1545.3 1567.2 1589.7 1612.7 1636.1 1659.7 1683 1705.9 1727.8 1748.5 1767.5 1784.4 1799 1811 1820.1 1826.3 1829.5 1829.9 1827.4 1822.5 1815.2 1806 1795.3 1783.3 1770.6 1757.5 1744.4 1731.7 1719.7 1708.8 1699.2
497.5 532.6 569.5 608.2 648.5 690.4 733.5 777.7 822.6 868 913.3 958.3 1002.5 1045.7 1087.4 1127.4 1165.6 1201.8 1235.9 1268 1298.3 1326.8 1354 1380 1405.2 1429.9 1454.4 1479.1 1504.1 1529.5 1555.5 1581.9 1608.7 1635.8 1662.7 1689.2 1714.9 1739.4 1762.3 1783.2 1801.8 1817.6 1830.5 1840.3 1846.8 1850.2 1850.4 1847.7 1842.2 1834.3 1824.3 1812.6 1799.6 1785.9 1771.7 1757.5 1743.7 1730.6 1718.6 1708
486.5 519.7 554.5 591 628.9 668.2 708.7 750.2 792.5 835.1 877.9 920.5 962.6 1003.8 1044 1082.9 1120.3 1156.2 1190.5 1223.4 1254.8 1285 1314.3 1342.8 1370.9 1398.8 1426.8 1455 1483.7 1512.9 1542.5 1572.7 1603 1633.4 1663.5 1692.9 1721.3 1748.1 1773.1 1795.8 1815.8 1832.8 1846.6 1857 1863.9 1867.5 1867.6 1864.7 1858.8 1850.3 1839.7 1827.2 1813.5 1798.8 1783.7 1768.6 1753.8 1739.9 1727 1715.4
476.1 507.5 540.4 574.7 610.3 647.2 685.2 724.2 763.8 804 844.3 884.6 924.6 964.1 1002.7 1040.5 1077.2 1112.8 1147.2 1180.7 1213.2 1244.9 1276 1306.8 1337.5 1368.3 1399.3 1430.8 1462.9 1495.5 1528.5 1562 1595.5 1629 1661.9 1694 1724.7 1753.7 1780.6 1804.8 1826.2 1844.3 1858.9 1869.9 1877.3 1881 1881.2 1878.1 1871.9 1863 1851.9 1838.9 1824.4 1809.1 1793.2 1777.4 1761.9 1747.2 1733.6 1721.4
466.4 496.1 527.1 559.4 592.9 627.6 663.3 699.8 737.1 774.8 812.9 851 889.1 926.8 964 1000.7 1036.6 1071.8 1106.4 1140.3 1173.7 1206.7 1239.5 1272.3 1305.2 1338.6 1372.4 1406.8 1441.8 1477.4 1513.5 1549.9 1586.3 1622.4 1657.8 1692.2 1725.1 1756 1784.5 1810.2 1832.7 1851.8 1867.2 1878.8 1886.6 1890.5 1890.8 1887.6 1881.3 1872.2 1860.7 1847.3 1832.4 1816.5 1800.2 1783.8 1767.8 1752.6 1738.4 1725.7
457.4 485.6 514.9 545.4 576.9 609.5 643 677.4 712.4 747.9 783.9 820 856.2 892.3 928.1 963.7 998.9 1033.7 1068.2 1102.5 1136.6 1170.7 1204.9 1239.4 1274.4 1309.9 1346.1 1383 1420.6 1458.8 1497.4 1536.3 1575.2 1613.6 1651.2 1687.6 1722.3 1754.8 1784.7 1811.6 1835.2 1855.2 1871.3 1883.5 1891.6 1895.9 1896.3 1893.2 1886.8 1877.6 1865.9 1852.3 1837.2 1821 1804.4 1787.7 1771.3 1755.8 1741.4 1728.4
449.3 476.1 503.8 532.6 562.4 593 624.6 656.9 689.8 723.4 757.3 791.6 826.1 860.6 895.2 929.7 964.2 998.6 1033 1067.5 1102.1 1137 1172.4 1208.3 1244.9 1282.3 1320.5 1359.5 1399.2 1439.6 1480.4 1521.4 1562.2 1602.6 1642 1680 1716.2 1750 1781.1 1809.1 1833.6 1854.3 1871.1 1883.7 1892.3 1896.8 1897.5 1894.5 1888.3 1879.1 1867.5 1853.8 1838.6 1822.5 1805.7 1788.9 1772.5 1756.9 1742.3 1729.2
441.9 467.5 493.8 521.1 549.2 578.2 607.9 638.4 669.5 701.2 733.4 765.9 798.8 832 865.3 898.9 932.6 966.5 1000.7 1035.3 1070.3 1105.8 1142.1 1179.1 1217 1255.8 1295.6 1336.3 1377.7 1419.8 1462.4 1505 1547.5 1589.3 1630.1 1669.4 1706.8 1741.7 1773.7 1802.5 1827.8 1849.1 1866.4 1879.5 1888.5 1893.4 1894.4 1891.7 1885.7 1876.7 1865.3 1851.8 1836.8 1820.8 1804.2 1787.5 1771.2 1755.7 1741.3 1728.3
435.4 459.8 485 510.9 537.5 565 593.1 621.9 651.4 681.4 712 743 774.4 806.3 838.5 871 904 937.4 971.4 1005.9 1041.1 1077 1113.9 1151.7 1190.6 1230.5 1271.5 1313.4 1356.1 1399.5 1443.3 1487.2 1530.9 1573.8 1615.7 1655.9 1694.1 1729.8 1762.6 1792 1817.8 1839.6 1857.4 1871 1880.3 1885.6 1887 1884.7 1879.1 1870.5 1859.4 1846.3 1831.7 1816 1799.8 1783.5 1767.6 1752.4 1738.3 1725.7
429.7 453.1 477.2 501.9 527.3 553.3 580 607.4 635.4 663.9 693 722.6 752.8 783.4 814.5 846.2 878.4 911.3 944.8 979.2 1014.4 1050.6 1087.8 1126.1 1165.6 1206.3 1248 1290.8 1334.4 1378.7 1423.4 1468.1 1512.5 1556.2 1598.7 1639.5 1678.3 1714.5 1747.7 1777.6 1803.7 1826 1844.2 1858.1 1867.9 1873.6 1875.5 1873.6 1868.5 1860.5 1850 1837.4 1823.4 1808.3 1792.7 1777 1761.6 1747 1733.5 1721.3
424.7 447.3 470.4 494 518.3 543.2 568.7 594.7 621.4 648.6 676.4 704.8 733.7 763.2 793.4 824.2 855.6 887.9 921 955.1 990.1 1026.3 1063.7 1102.2 1142 1183.1 1225.3 1268.5 1312.6 1357.4 1402.5 1447.6 1492.4 1536.5 1579.3 1620.4 1659.5 1695.9 1729.4 1759.5 1785.9 1808.4 1826.9 1841.3 1851.5 1857.7 1860 1858.8 1854.3 1846.9 1837.1 1825.3 1812 1797.8 1782.9 1768 1753.4 1739.6 1726.8 1715.3
420.4 442.2 464.5 487.3 510.6 534.4 558.8 583.7 609.2 635.3 662 689.2 717.1 745.6 774.8 804.7 835.5 867.1 899.7 933.3 968.1 1004.1 1041.3 1079.9 1119.7 1160.8 1203.1 1246.5 1290.7 1335.5 1380.8 1426 1470.8 1514.9 1557.7 1598.8 1637.8 1674.3 1707.8 1737.9 1764.5 1787.2 1806 1820.6 1831.3 1838 1840.9 1840.3 1836.6 1830 1821.1 1810.2 1797.9 1784.6 1770.7 1756.8 1743.2 1730.3 1718.4 1707.8
416.8 437.9 459.5 481.5 504 526.9 550.4 574.3 598.8 623.9 649.5 675.8 702.6 730.2 758.5 787.7 817.7 848.6 880.7 913.8 948.1 983.8 1020.7 1059 1098.6 1139.5 1181.5 1224.7 1268.7 1313.3 1358.3 1403.2 1447.8 1491.5 1534.1 1574.9 1613.7 1649.9 1683.3 1713.3 1739.9 1762.7 1781.6 1796.6 1807.7 1814.9 1818.5 1818.6 1815.7 1810.1 1802.2 1792.4 1781.2 1769 1756.3 1743.6 1731.1 1719.3 1708.5 1699
413.7 434.3 455.3 476.6 498.4 520.6 543.2 566.3 590 614.1 638.9 664.2 690.2 716.9 744.4 772.8 802 832.3 863.7 896.2 930 965.1 1001.6 1039.4 1078.5 1118.9 1160.5 1203.2 1246.7 1290.8 1335.2 1379.6 1423.5 1466.7 1508.7 1549.1 1587.3 1623.2 1656.2 1686 1712.5 1735.3 1754.3 1769.6 1781.1 1788.9 1793.1 1794.1 1792.2 1787.6 1780.8 1772.2 1762.3 1751.4 1740 1728.6 1717.4 1706.9 1697.3 1688.9
411.1 431.3 451.7 472.5 493.7 515.2 537.2 559.6 582.4 605.8 629.8 654.3 679.5 705.5 732.2 759.8 788.3 817.9 848.6 880.4 913.6 948 983.8 1021 1059.4 1099.2 1140.1 1182 1224.7 1268 1311.6 1355.1 1398.3 1440.7 1481.9 1521.5 1559.1 1594.4 1626.9 1656.4 1682.6 1705.4 1724.6 1740.1 1752 1760.3 1765.3 1767.2 1766.3 1762.8 1757.3 1750 1741.4 1732 1722.1 1712 1702.3 1693.2 1684.9 1677.8
409 428.8 448.8 469.1 489.8 510.8 532.1 553.9 576.1 598.8 622.1 645.9 670.4 695.6 721.6 748.5 776.3 805.1 835.1 866.2 898.6 932.3 967.3 1003.6 1041.3 1080.1 1120.1 1161.1 1202.8 1245.1 1287.7 1330.2 1372.3 1413.7 1453.9 1492.6 1529.4 1564 1595.9 1625 1650.9 1673.5 1692.8 1708.5 1720.8 1729.8 1735.5 1738.4 1738.5 1736.3 1732 1726.2 1719.1 1711.1 1702.7 1694.3 1686.1 1678.4 1671.7 1665.9
407.2 426.7 446.4 466.3 486.5 507.1 527.9 549.2 570.8 592.9 615.6 638.8 662.6 687.2 712.5 738.6 765.7 793.8 823 853.4 885 917.8 951.9 987.3 1024 1061.8 1100.7 1140.6 1181.2 1222.3 1263.6 1304.9 1345.9 1386.1 1425.2 1462.8 1498.7 1532.4 1563.7 1592.2 1617.8 1640.2 1659.4 1675.4 1688.1 1697.7 1704.2 1708 1709.3 1708.3 1705.5 1701.1 1695.5 1689.2 1682.4 1675.6 1669 1663 1657.7 1653.4
405.8 425 444.4 464 483.9 504 524.4 545.2 566.4 588 610.1 632.8 656 679.9 704.6 730.1 756.5 783.8 812.2 841.8 872.5 904.4 937.6 972 1007.5 1044.2 1081.9 1120.5 1159.8 1199.6 1239.6 1279.6 1319.2 1358.1 1396 1432.5 1467.3 1500.1 1530.6 1558.5 1583.6 1605.9 1625.1 1641.3 1654.4 1664.6 1671.9 1676.7 1679.1 1679.4 1678 1675.1 1671.2 1666.5 1661.4 1656.3 1651.4 1646.9 1643.2 1640.5
404.7 423.6 442.8 462.1 481.7 501.5 521.6 542 562.7 583.9 605.5 627.6 650.3 673.7 697.7 722.6 748.3 774.9 802.6 831.3 861.1 892 924.2 957.5 991.9 1027.3 1063.8 1101 1138.9 1177.3 1215.8 1254.4 1292.5 1330.1 1366.6 1401.9 1435.6 1467.4 1497.1 1524.4 1549.1 1571.1 1590.2 1606.6 1620.1 1630.9 1639.1 1644.8 1648.4 1650.1 1650.1 1648.8 1646.4 1643.4 1640.1 1636.6 1633.4 1630.6 1628.5 1627.3
403.7 422.5 441.5 460.6 479.9 499.4 519.2 539.3 559.7 580.5 601.7 623.3 645.5 668.3 691.8 716 741.1 767 793.8 821.7 850.6 880.6 911.7 943.8 977 1011.2 1046.3 1082.1 1118.6 1155.5 1192.5 1229.5 1266.2 1302.3 1337.5 1371.5 1404.1 1434.9 1463.7 1490.3 1514.5 1536.2 1555.3 1571.9 1585.8 1597.2 1606.1 1612.9 1617.6 1620.6 1622.1 1622.3 1621.6 1620.3 1618.6 1616.9 1615.4 1614.3 1613.8 1614.1
403 421.6 440.4 459.4 478.5 497.8 517.3 537.1 557.2 577.6 598.4 619.7 641.4 663.7 686.7 710.3 734.7 759.9 786 813 841 870 900 931 963 995.8 1029.6 1064 1098.9 1134.3 1169.8 1205.3 1240.5 1275.1 1308.9 1341.6 1373 1402.8 1430.7 1456.6 1480.3 1501.8 1520.8 1537.5 1551.8 1563.8 1573.5 1581.3 1587.2 1591.4 1594.3 1596.1 1597 1597.4 1597.4 1597.4 1597.5 1598.1 1599.2 1601
402.4 420.9 439.6 458.4 477.3 496.4 515.7 535.3 555.1 575.2 595.7 616.5 637.9 659.7 682.2 705.2 729 753.5 778.9 805 832.1 860.1 889.1 919 949.7 981.3 1013.6 1046.6 1080.1 1113.9 1147.9 1181.9 1215.5 1248.7 1281.1 1312.5 1342.7 1371.5 1398.5 1423.7 1447 1468.1 1487.1 1503.9 1518.6 1531.1 1541.7 1550.4 1557.4 1562.9 1567.2 1570.5 1573 1574.9 1576.6 1578.3 1580.1 1582.2 1584.9 1588.2
401.9 420.4 438.9 457.6 476.4 495.3 514.4 533.7 553.3 573.2 593.3 613.9 634.8 656.3 678.2 700.8 723.9 747.8 772.4 797.8 824 851.1 879 907.7 937.3 967.6 998.5 1030.1 1062.1 1094.5 1127 1159.4 1191.6 1223.3 1254.4 1284.5 1313.6 1341.3 1367.5 1392 1414.8 1435.6 1454.5 1471.5 1486.5 1499.6 1510.8 1520.5 1528.6 1535.3 1541 1545.7 1549.7 1553.2 1556.5 1559.8 1563.2 1566.9 1571 1575.8
401.5 419.9 438.4 456.9 475.6 494.4 513.3 532.5 551.8 571.5 591.4 611.6 632.2 653.3 674.8 696.8 719.4 742.7 766.6 791.2 816.6 842.7 869.6 897.3 925.6 954.7 984.4 1014.6 1045.2 1076.1 1107.1 1138.1 1168.8 1199.2 1228.9 1257.8 1285.7 1312.4 1337.8 1361.7 1384 1404.6 1423.4 1440.4 1455.8 1469.4 1481.4 1491.8 1501 1508.9 1515.8 1521.9 1527.4 1532.5 1537.3 1542.1 1547 1552.2 1557.8 1563.9
401.2 419.5 437.9 456.4 475 493.6 512.5 531.4 550.6 570 589.7 609.6 629.9 650.6 671.7 693.3 715.4 738.1 761.3 785.2 809.8 835 861 887.6 914.8 942.7 971.1 1000 1029.3 1058.8 1088.4 1118 1147.4 1176.4 1204.8 1232.6 1259.4 1285.2 1309.8 1333 1354.8 1375.2 1393.9 1411.1 1426.7 1440.8 1453.4 1464.8 1474.9 1483.9 1492.1 1499.5 1506.3 1512.8 1519.1 1525.3 1531.7 1538.3 1545.3 1552.7
401 419.3 437.6 456 474.4 493 511.7 530.6 549.6 568.8 588.3 608 628 648.3 669.1 690.2 711.8 733.9 756.6 779.8 803.6 828 853.1 878.7 904.9 931.6 958.9 986.5 1014.5 1042.7 1071 1099.2 1127.3 1155.1 1182.3 1208.9 1234.8 1259.7 1283.5 1306.2 1327.5 1347.6 1366.3 1383.5 1399.4 1414 1427.3 1439.4 1450.4 1460.5 1469.8 1478.4 1486.6 1494.4 1502 1509.6 1517.3 1525.3 1533.5 1542.2
