ncols 60
nrows 60
xllcorner 300000
yllcorner 4100000
cellsize 1000
NODATA_value -9999
570 577 583 589 596 602 609 615 622 629 635 642 648 654 661 666 672 678 683 688 692 697 701 705 709 713 716 720 723 727 730 734 737 741 745 749 753 757 761 765 770 774 779 783 788 793 798 802 807 812 817 822 827 832 837 842 847 852 857 862
570 576 582 589 596 603 610 617 624 631 638 644 651 658 664 670 676 681 687 692 696 701 705 708 712 715 719 722 725 728 731 735 738 741 745 748 752 756 760 764 768 773 777 782 786 791 796 801 805 810 815 820 825 830 835 840 845 850 855 860
569 576 582 589 597 604 611 619 626 633 641 648 655 662 668 675 681 686 691 696 701 705 709 713 716 719 722 725 728 730 733 736 739 742 745 748 752 755 759 763 767 772 776 780 785 789 794 799 804 808 813 818 823 828 833 838 843 848 853 858
569 576 583 590 598 605 613 621 629 637 644 652 659 667 674 680 686 692 697 702 707 711 714 718 721 723 726 728 731 733 735 738 740 743 746 749 752 755 759 763 766 770 775 779 783 788 793 797 802 807 812 816 821 826 831 836 841 846 851 856
568 576 583 591 599 607 616 624 632 641 649 657 665 672 680 686 693 699 704 709 713 717 720 723 726 728 731 732 734 736 738 740 742 744 747 749 752 755 759 762 766 770 774 778 782 787 791 796 800 805 810 815 819 824 829 834 839 844 849 854
569 576 584 593 601 610 618 627 636 645 654 663 671 679 687 694 701 707 712 717 721 725 728 730 733 734 736 738 739 740 741 743 744 746 748 750 753 756 759 762 765 769 773 777 781 785 790 794 799 804 808 813 818 823 827 832 837 842 847 852
569 577 585 594 603 613 622 632 641 651 660 669 678 687 695 702 709 715 721 726 730 733 736 738 740 741 742 743 744 745 745 746 747 749 750 752 754 756 759 762 765 769 772 776 780 784 789 793 798 802 807 812 816 821 826 831 835 840 845 850
569 578 587 596 606 616 626 636 647 657 667 677 686 695 704 712 719 725 731 735 739 743 745 747 748 749 750 750 750 750 750 750 751 751 752 754 755 757 760 762 765 769 772 776 780 784 788 792 797 801 806 810 815 820 824 829 834 838 843 848
570 579 589 599 609 620 630 641 652 663 674 685 695 705 714 722 729 736 741 746 750 753 755 757 757 758 757 757 757 756 755 755 755 755 755 756 757 759 761 763 766 769 772 776 779 783 787 791 796 800 805 809 814 818 823 827 832 837 842 846
571 581 591 601 612 624 635 647 659 671 682 694 704 715 724 733 740 747 753 758 761 764 766 767 767 767 766 765 764 762 761 760 759 759 759 759 759 761 762 764 767 769 772 776 779 783 787 791 795 799 804 808 813 817 822 826 831 835 840 845
572 582 593 604 616 628 640 653 666 678 691 703 714 725 735 744 752 759 765 770 773 776 777 778 777 777 775 773 771 769 767 765 764 763 762 762 762 763 764 766 768 770 773 776 779 783 787 791 795 799 803 807 812 816 821 825 830 834 839 843
573 584 595 607 620 633 646 659 673 686 699 712 724 736 746 756 764 772 778 782 786 788 789 789 788 787 785 782 779 777 774 771 769 767 766 765 765 765 766 767 769 771 774 777 780 783 787 791 795 799 803 807 811 815 820 824 828 833 837 842
574 586 598 610 624 637 651 665 680 694 708 722 735 747 758 768 777 784 790 795 798 800 801 801 799 797 794 791 788 784 781 778 775 772 771 769 768 768 769 770 771 773 775 778 781 784 788 791 795 799 803 807 811 815 819 823 828 832 836 841
575 587 600 613 627 642 656 672 687 702 717 731 745 758 769 780 789 797 803 808 811 813 813 812 810 808 804 800 796 792 788 784 781 778 775 773 772 772 772 772 773 775 777 780 782 785 789 792 796 799 803 807 811 815 819 823 827 831 835 839
576 589 602 616 631 646 662 678 694 709 725 740 755 768 780 791 801 809 815 820 823 825 825 823 821 818 814 809 805 800 795 791 787 783 780 778 776 775 775 775 776 777 779 781 784 787 790 793 797 800 804 807 811 815 819 822 826 830 834 839
577 590 604 619 634 650 666 683 700 717 733 749 764 778 791 802 812 820 827 832 835 836 836 834 831 828 823 818 813 807 802 797 793 788 785 782 780 779 778 778 779 780 782 784 786 789 792 795 798 801 805 808 812 815 819 822 826 830 834 838
578 591 606 621 637 654 671 688 706 723 740 757 772 787 800 812 823 831 838 842 845 847 846 844 841 837 832 827 821 815 809 803 798 794 790 787 785 783 782 782 782 783 785 787 789 791 794 797 800 803 806 809 813 816 819 823 826 830 833 837
578 592 607 623 639 656 674 692 710 729 746 763 780 795 809 821 832 840 847 852 855 856 855 853 850 845 840 834 828 822 815 810 804 799 795 792 789 788 786 786 786 787 788 790 792 794 797 799 802 805 808 811 814 817 820 823 827 830 833 837
578 593 608 624 641 659 677 696 714 733 751 769 786 801 816 828 839 848 855 860 863 864 863 861 858 853 847 841 835 828 822 815 810 805 801 797 794 792 791 790 790 791 792 794 796 798 800 802 805 807 810 813 816 819 821 824 827 830 834 837
578 592 608 625 642 660 679 698 717 736 755 773 790 806 821 834 845 854 861 866 870 871 870 868 864 859 853 847 840 834 827 821 815 810 806 802 799 797 796 795 795 796 797 798 800 802 804 806 808 810 813 815 818 820 823 826 828 831 834 837
577 592 608 624 642 661 680 699 718 738 757 776 793 810 824 838 849 858 866 871 874 875 875 872 869 864 858 852 845 838 832 826 820 815 810 807 804 802 801 800 800 800 801 803 804 806 808 810 812 814 816 818 820 823 825 827 829 832 834 837
575 590 607 624 641 660 679 699 719 738 758 776 794 811 826 839 851 861 868 873 877 878 877 875 872 867 861 855 849 842 836 830 824 819 815 812 809 807 806 805 805 806 807 808 809 811 813 814 816 818 820 822 823 825 827 829 831 833 835 838
574 589 605 622 640 658 678 697 717 737 757 775 793 810 825 839 851 860 868 874 877 879 878 876 873 869 863 858 851 845 839 833 828 823 819 816 814 812 811 811 811 811 812 813 815 816 818 819 821 822 824 825 827 828 830 831 833 835 836 838
571 586 602 619 637 656 675 695 715 734 754 773 791 807 823 836 848 858 866 872 875 877 877 876 873 869 864 858 853 847 841 836 831 827 824 821 819 817 817 816 817 817 818 819 821 822 823 825 826 827 828 829 830 831 833 834 835 836 838 839
568 583 599 616 634 652 671 691 710 730 749 768 786 803 818 832 844 854 862 868 872 874 874 873 871 867 863 858 853 848 843 838 834 830 827 825 823 822 822 822 823 823 824 826 827 828 829 830 831 832 833 834 834 835 836 836 837 838 839 841
565 579 595 612 629 647 666 685 705 724 743 762 779 796 811 825 837 847 855 861 866 868 869 869 867 864 860 856 852 847 843 839 836 833 831 829 828 828 828 828 829 830 831 832 833 834 835 836 837 838 838 838 839 839 839 839 840 840 841 842
561 575 591 607 624 642 660 679 698 717 736 754 771 788 803 816 828 838 847 853 858 861 862 862 861 859 856 853 850 846 843 840 837 835 834 833 832 833 833 834 835 836 838 839 840 841 842 843 843 843 843 843 843 843 843 843 842 842 843 843
556 571 585 601 618 635 653 672 690 709 727 745 762 778 792 806 818 828 837 843 848 852 854 855 854 853 851 849 847 844 842 840 838 837 836 836 837 837 838 840 841 843 844 846 847 848 849 849 849 849 849 848 848 847 846 846 845 845 845 845
552 565 580 595 611 628 645 663 681 699 717 734 751 766 781 794 806 816 825 832 837 842 844 846 846 846 845 844 842 841 840 839 838 838 839 839 840 842 844 845 847 849 851 852 854 855 855 856 855 855 854 854 853 851 850 849 848 847 847 846
547 560 574 589 604 620 637 654 671 689 706 722 738 754 768 781 793 803 812 819 825 830 833 835 837 838 838 838 837 837 837 837 838 839 840 842 844 846 849 851 853 856 858 859 861 861 862 862 862 861 860 859 857 856 854 852 851 850 848 848
542 554 568 582 597 612 628 644 661 677 694 710 725 740 754 767 778 789 798 805 812 817 821 824 827 828 830 831 832 833 834 835 837 839 842 844 847 850 853 856 859 862 864 866 867 868 868 868 868 867 865 864 862 860 858 856 854 852 850 849
536 548 561 575 589 603 619 634 650 666 681 697 712 726 739 752 763 774 783 791 798 803 808 812 816 818 821 823 825 828 830 833 836 839 842 846 850 854 857 861 864 867 870 872 873 874 874 874 873 872 870 868 866 864 861 859 856 854 852 850
531 542 554 567 581 595 609 624 639 654 669 683 698 711 724 737 748 758 767 776 783 789 795 800 804 808 812 815 819 822 826 830 834 838 843 847 852 857 861 865 869 872 875 877 879 880 880 880 879 877 875 873 870 867 864 861 858 856 853 851
525 536 548 560 573 586 599 613 628 642 656 670 684 697 709 721 732 743 752 760 768 775 781 787 792 797 802 807 811 816 821 826 832 837 843 848 854 859 864 869 873 877 880 883 884 885 885 885 883 882 879 877 874 870 867 864 860 857 855 852
520 530 541 553 564 577 590 603 616 630 643 656 670 682 694 706 717 727 736 745 753 761 768 774 780 786 792 798 804 810 816 822 829 835 842 848 855 861 867 872 877 881 884 887 889 889 890 889 888 885 883 880 877 873 869 866 862 859 856 853
514 524 534 545 557 568 580 593 605 618 631 643 656 668 679 691 701 712 721 730 739 747 754 761 768 775 782 789 796 803 811 818 825 833 841 848 855 862 868 874 880 884 888 890 892 893 893 892 891 889 886 883 879 875 871 867 863 860 856 853
509 518 528 538 549 560 571 583 595 607 619 631 642 654 665 676 686 697 706 715 724 733 741 749 757 764 772 780 788 796 805 813 822 830 839 847 855 862 869 876 881 886 890 893 895 896 896 895 893 891 888 884 881 876 872 868 864 860 856 853
504 513 522 532 541 552 562 573 584 596 607 618 629 641 651 662 672 682 692 701 710 719 728 737 745 754 762 771 780 789 799 808 817 827 836 845 854 862 869 876 882 887 891 894 896 897 897 896 895 892 889 885 881 877 873 868 864 860 856 853
499 507 516 525 534 544 554 564 575 585 596 607 617 628 638 649 659 669 678 688 697 706 715 725 734 743 753 762 772 782 792 802 813 823 833 842 851 860 868 875 882 887 891 894 897 898 898 897 895 893 889 886 881 877 872 868 863 859 855 852
494 502 510 519 528 537 546 556 566 576 586 596 606 616 626 636 646 656 665 675 684 694 704 713 723 733 743 753 764 775 785 796 807 818 829 839 848 858 866 873 880 886 890 894 896 897 897 896 895 892 889 885 881 876 871 867 862 858 854 850
490 497 505 513 521 530 539 548 557 567 576 586 595 605 615 624 634 644 653 663 673 682 692 702 713 723 734 745 756 767 779 790 801 813 824 834 845 854 863 871 877 883 888 891 894 895 895 894 893 890 887 883 879 874 870 865 860 856 852 848
486 493 500 508 516 524 532 541 549 558 567 576 585 595 604 613 623 632 642 652 661 671 682 692 703 713 725 736 748 759 771 783 795 807 818 829 840 849 858 866 874 880 884 888 891 892 892 891 890 887 884 880 876 872 867 862 858 853 849 846
482 488 495 503 510 518 526 534 542 550 559 568 576 585 594 603 613 622 632 641 651 661 671 682 693 704 716 727 739 751 764 776 788 800 812 823 834 844 853 861 869 875 880 883 886 888 888 887 886 883 880 877 872 868 864 859 855 850 846 843
478 484 491 498 505 512 520 527 535 543 551 560 568 577 585 594 603 613 622 632 641 652 662 673 684 695 707 719 731 743 756 768 781 793 805 816 827 837 847 855 862 869 874 878 880 882 883 882 881 878 875 872 868 864 859 855 851 847 843 839
474 480 487 494 500 507 514 522 529 537 545 553 561 569 577 586 595 604 613 623 632 643 653 664 675 686 698 710 723 735 748 761 773 785 797 809 820 830 839 848 855 862 867 871 874 875 876 876 874 872 870 866 863 859 854 850 846 842 839 835
471 477 483 489 496 503 509 516 524 531 538 546 554 562 570 578 587 596 605 614 624 634 645 655 667 678 690 702 714 727 740 752 765 777 789 801 812 822 831 840 847 853 859 863 866 868 868 868 867 865 863 860 856 853 849 845 841 837 834 831
468 473 479 486 492 498 505 512 518 525 533 540 548 555 563 571 580 588 597 607 616 626 637 647 658 670 682 694 706 719 731 744 756 768 780 792 803 813 822 831 838 844 850 854 857 859 860 860 859 858 855 853 850 846 843 839 836 832 829 827
464 470 476 482 488 494 501 507 514 521 527 535 542 549 557 565 573 582 590 600 609 619 629 640 651 662 674 685 698 710 722 735 747 759 771 782 793 803 812 821 828 834 840 844 847 849 851 851 850 849 847 845 842 839 836 833 829 827 824 821
462 467 473 479 485 491 497 503 509 516 523 530 537 544 551 559 567 575 584 593 602 612 622 632 643 654 666 677 689 701 714 726 738 750 761 772 783 793 802 810 818 824 829 834 837 839 841 841 841 840 838 836 834 831 829 826 823 820 818 816
459 464 470 476 481 487 493 499 506 512 518 525 532 539 546 554 562 570 578 587 596 605 615 625 636 647 658 669 681 693 705 717 728 740 751 762 772 782 791 799 806 813 818 823 826 829 830 831 831 830 829 828 826 823 821 819 816 814 812 811
456 461 467 473 478 484 490 496 502 508 514 521 528 534 542 549 556 564 572 581 590 599 609 618 629 639 650 661 673 684 696 707 719 730 741 752 762 771 780 788 795 801 807 811 815 817 819 820 821 820 820 818 817 815 813 811 809 808 806 805
453 459 464 470 475 481 487 492 498 504 511 517 523 530 537 544 552 559 567 576 584 593 602 612 622 632 643 654 665 676 687 698 709 720 731 741 751 760 768 776 783 789 795 799 803 806 808 809 810 810 810 809 808 806 805 804 802 801 800 799
451 456 462 467 472 478 484 489 495 501 507 513 520 526 533 540 547 555 562 570 579 587 596 606 615 625 635 646 656 667 678 689 700 710 720 730 740 748 757 764 771 778 783 787 791 794 797 798 799 800 800 799 799 798 797 796 795 794 794 793
448 454 459 464 470 475 481 486 492 498 504 510 516 523 529 536 543 550 558 565 574 582 591 600 609 619 628 638 649 659 669 680 690 700 710 719 729 737 745 753 759 766 771 776 779 783 785 787 788 789 790 790 789 789 789 788 788 787 787 787
446 451 457 462 467 473 478 484 489 495 501 507 513 519 525 532 539 546 553 561 569 577 585 594 603 612 621 631 641 651 661 671 681 690 700 709 718 726 734 741 748 754 759 764 768 771 774 776 778 779 780 780 780 780 780 780 781 781 781 781
444 449 454 459 465 470 475 481 486 492 498 504 510 516 522 528 535 542 549 556 564 572 580 588 597 606 615 624 633 643 652 662 671 681 690 698 707 715 723 730 736 742 747 752 756 760 763 765 767 769 770 771 771 772 772 773 773 774 775 776
441 447 452 457 462 467 473 478 484 489 495 501 507 513 519 525 531 538 545 552 560 567 575 583 591 600 608 617 626 635 644 653 662 671 680 688 697 704 712 719 725 731 736 741 745 749 752 755 757 759 760 762 763 764 765 766 766 768 769 770
439 444 449 455 460 465 470 476 481 487 492 498 504 510 516 522 528 535 541 548 555 563 570 578 586 594 602 611 619 628 637 645 654 662 671 679 687 694 701 708 714 720 725 730 734 738 741 744 747 749 751 753 754 756 757 758 760 761 763 764
437 442 447 452 457 463 468 473 479 484 490 495 501 507 512 519 525 531 538 544 551 558 565 573 581 588 596 604 613 621 629 637 646 654 662 670 677 684 691 698 704 709 715 720 724 728 731 735 737 740 742 744 746 748 750 751 753 755 757 759
434 440 445 450 455 460 465 471 476 481 487 492 498 504 510 515 522 528 534 541 547 554 561 568 576 583 591 598 606 614 622 630 638 646 653 661 668 675 682 688 694 700 705 710 714 718 722 725 728 731 734 736 738 741 743 745 747 749 752 754
