ncols 60
nrows 60
xllcorner 300000
yllcorner 4100000
cellsize 1000
NODATA_value -9999
14.56 14.43 14.3 14.16 14.02 13.88 13.74 13.6 13.46 13.31 13.17 13.03 12.9 12.76 12.63 12.5 12.38 12.27 12.15 12.05 11.95 11.85 11.76 11.68 11.59 11.51 11.44 11.36 11.29 11.21 11.14 11.06 10.98 10.91 10.82 10.74 10.66 10.57 10.48 10.39 10.29 10.2 10.1 10 9.9 9.8 9.7 9.59 9.49 9.38 9.28 9.17 9.07 8.96 8.85 8.75 8.64 8.53 8.43 8.32
14.52 14.39 14.25 14.1 13.96 13.81 13.66 13.51 13.36 13.21 13.07 12.92 12.77 12.63 12.5 12.37 12.25 12.13 12.01 11.91 11.81 11.72 11.63 11.55 11.47 11.4 11.33 11.26 11.19 11.12 11.06 10.99 10.92 10.84 10.77 10.69 10.61 10.53 10.44 10.35 10.26 10.17 10.07 9.98 9.88 9.78 9.68 9.57 9.47 9.37 9.26 9.16 9.05 8.95 8.84 8.73 8.63 8.52 8.41 8.31
14.48 14.34 14.19 14.04 13.89 13.73 13.58 13.42 13.26 13.1 12.94 12.79 12.64 12.49 12.35 12.22 12.09 11.97 11.85 11.75 11.65 11.56 11.48 11.4 11.33 11.27 11.2 11.14 11.08 11.02 10.96 10.9 10.84 10.77 10.71 10.64 10.56 10.48 10.4 10.32 10.23 10.14 10.05 9.95 9.85 9.76 9.65 9.55 9.45 9.35 9.24 9.14 9.04 8.93 8.82 8.72 8.61 8.51 8.4 8.29
14.43 14.28 14.13 13.97 13.81 13.64 13.48 13.31 13.14 12.97 12.81 12.64 12.48 12.33 12.18 12.04 11.91 11.79 11.67 11.57 11.47 11.39 11.31 11.24 11.17 11.12 11.06 11.01 10.96 10.91 10.86 10.81 10.75 10.7 10.64 10.57 10.5 10.43 10.35 10.27 10.19 10.1 10.01 9.92 9.83 9.73 9.63 9.53 9.43 9.33 9.22 9.12 9.02 8.91 8.81 8.7 8.6 8.49 8.39 8.28
14.38 14.22 14.06 13.89 13.72 13.55 13.37 13.19 13.01 12.83 12.65 12.48 12.31 12.15 11.99 11.85 11.71 11.58 11.47 11.37 11.27 11.19 11.12 11.05 11 10.95 10.9 10.86 10.82 10.78 10.74 10.7 10.66 10.61 10.56 10.5 10.44 10.37 10.3 10.23 10.15 10.06 9.98 9.89 9.8 9.7 9.6 9.51 9.41 9.31 9.2 9.1 9 8.89 8.79 8.69 8.58 8.48 8.37 8.27
14.32 14.15 13.98 13.8 13.62 13.44 13.25 13.06 12.86 12.67 12.48 12.3 12.12 11.95 11.78 11.63 11.49 11.36 11.24 11.14 11.05 10.97 10.91 10.85 10.8 10.76 10.73 10.7 10.67 10.64 10.61 10.58 10.55 10.51 10.47 10.42 10.37 10.31 10.24 10.17 10.1 10.02 9.94 9.85 9.76 9.67 9.57 9.48 9.38 9.28 9.18 9.08 8.98 8.87 8.77 8.67 8.56 8.46 8.35 8.25
14.25 14.08 13.9 13.71 13.52 13.32 13.11 12.91 12.7 12.5 12.3 12.1 11.91 11.73 11.55 11.39 11.25 11.11 11 10.89 10.81 10.73 10.67 10.62 10.59 10.56 10.53 10.52 10.5 10.48 10.47 10.45 10.43 10.4 10.37 10.33 10.29 10.24 10.18 10.11 10.05 9.97 9.89 9.81 9.72 9.63 9.54 9.45 9.35 9.25 9.15 9.05 8.95 8.85 8.75 8.65 8.54 8.44 8.34 8.23
14.18 14 13.81 13.61 13.4 13.19 12.97 12.75 12.53 12.31 12.09 11.88 11.68 11.49 11.3 11.14 10.98 10.85 10.73 10.63 10.54 10.47 10.42 10.38 10.35 10.33 10.32 10.32 10.32 10.31 10.31 10.31 10.3 10.28 10.26 10.23 10.2 10.16 10.11 10.05 9.98 9.92 9.84 9.76 9.68 9.59 9.5 9.41 9.31 9.22 9.12 9.02 8.92 8.82 8.72 8.62 8.52 8.42 8.32 8.21
14.11 13.92 13.71 13.5 13.28 13.05 12.82 12.58 12.35 12.11 11.88 11.65 11.44 11.23 11.04 10.86 10.7 10.56 10.44 10.34 10.26 10.19 10.15 10.12 10.1 10.09 10.1 10.11 10.12 10.13 10.14 10.15 10.16 10.15 10.14 10.13 10.1 10.07 10.03 9.98 9.92 9.85 9.78 9.71 9.63 9.55 9.46 9.37 9.28 9.18 9.09 8.99 8.89 8.8 8.7 8.6 8.5 8.4 8.3 8.19
14.04 13.83 13.61 13.38 13.15 12.91 12.66 12.41 12.15 11.9 11.65 11.41 11.18 10.96 10.76 10.57 10.4 10.26 10.14 10.03 9.96 9.9 9.86 9.84 9.83 9.84 9.86 9.88 9.91 9.94 9.96 9.99 10 10.02 10.02 10.01 10 9.97 9.94 9.9 9.84 9.79 9.72 9.65 9.57 9.49 9.41 9.32 9.23 9.14 9.05 8.95 8.86 8.76 8.67 8.57 8.47 8.37 8.27 8.17
13.96 13.74 13.51 13.27 13.01 12.76 12.49 12.22 11.95 11.68 11.42 11.16 10.91 10.68 10.46 10.27 10.09 9.94 9.82 9.72 9.64 9.59 9.56 9.55 9.55 9.57 9.61 9.64 9.69 9.73 9.77 9.81 9.84 9.87 9.88 9.89 9.88 9.87 9.84 9.81 9.76 9.71 9.65 9.58 9.51 9.44 9.35 9.27 9.18 9.09 9 8.91 8.82 8.73 8.63 8.54 8.44 8.34 8.24 8.15
13.87 13.64 13.4 13.14 12.88 12.6 12.32 12.03 11.74 11.46 11.17 10.9 10.64 10.39 10.16 9.96 9.78 9.62 9.49 9.39 9.32 9.27 9.25 9.25 9.27 9.3 9.34 9.4 9.46 9.52 9.57 9.63 9.67 9.71 9.74 9.76 9.76 9.76 9.74 9.71 9.67 9.63 9.57 9.51 9.44 9.37 9.29 9.21 9.13 9.04 8.95 8.87 8.78 8.68 8.59 8.5 8.41 8.31 8.22 8.12
13.79 13.55 13.29 13.02 12.74 12.45 12.15 11.84 11.53 11.23 10.93 10.64 10.36 10.1 9.86 9.64 9.45 9.29 9.16 9.06 8.99 8.95 8.94 8.94 8.97 9.02 9.08 9.15 9.22 9.3 9.37 9.44 9.5 9.55 9.59 9.62 9.63 9.64 9.63 9.61 9.58 9.54 9.49 9.43 9.37 9.3 9.22 9.15 9.07 8.98 8.9 8.81 8.73 8.64 8.55 8.46 8.37 8.28 8.18 8.09
13.71 13.46 13.19 12.9 12.6 12.29 11.97 11.65 11.33 11 10.68 10.38 10.08 9.81 9.56 9.33 9.13 8.97 8.84 8.74 8.67 8.63 8.62 8.64 8.68 8.74 8.81 8.89 8.98 9.07 9.16 9.24 9.32 9.38 9.43 9.47 9.5 9.51 9.51 9.5 9.47 9.44 9.39 9.34 9.28 9.22 9.15 9.07 9 8.92 8.84 8.75 8.67 8.59 8.5 8.41 8.32 8.24 8.15 8.06
13.63 13.36 13.08 12.78 12.47 12.14 11.81 11.47 11.12 10.78 10.45 10.12 9.81 9.53 9.26 9.03 8.82 8.65 8.51 8.41 8.35 8.32 8.31 8.34 8.39 8.46 8.55 8.64 8.74 8.85 8.95 9.04 9.13 9.21 9.27 9.32 9.36 9.38 9.38 9.38 9.36 9.33 9.29 9.24 9.19 9.13 9.06 8.99 8.92 8.84 8.77 8.69 8.61 8.53 8.44 8.36 8.28 8.19 8.11 8.02
13.56 13.28 12.98 12.67 12.34 12 11.65 11.29 10.93 10.57 10.22 9.88 9.56 9.26 8.98 8.74 8.52 8.35 8.21 8.11 8.04 8.01 8.02 8.05 8.11 8.19 8.29 8.4 8.51 8.63 8.74 8.85 8.95 9.03 9.11 9.16 9.21 9.24 9.25 9.25 9.24 9.21 9.18 9.13 9.08 9.03 8.96 8.9 8.83 8.76 8.69 8.61 8.54 8.46 8.38 8.3 8.22 8.14 8.06 7.98
13.49 13.2 12.89 12.56 12.22 11.87 11.5 11.13 10.75 10.38 10.01 9.66 9.32 9.01 8.72 8.46 8.24 8.06 7.92 7.82 7.76 7.73 7.74 7.78 7.85 7.94 8.04 8.16 8.29 8.41 8.54 8.65 8.76 8.86 8.94 9 9.05 9.09 9.11 9.11 9.1 9.08 9.05 9.01 8.97 8.92 8.86 8.8 8.73 8.67 8.6 8.53 8.46 8.39 8.31 8.24 8.16 8.09 8.01 7.93
13.42 13.12 12.8 12.47 12.11 11.75 11.37 10.98 10.59 10.2 9.82 9.46 9.11 8.78 8.48 8.22 7.99 7.81 7.66 7.56 7.49 7.47 7.48 7.53 7.6 7.7 7.81 7.94 8.07 8.21 8.34 8.47 8.58 8.68 8.77 8.84 8.9 8.94 8.96 8.97 8.96 8.95 8.92 8.89 8.84 8.8 8.74 8.69 8.63 8.57 8.5 8.44 8.37 8.31 8.24 8.17 8.1 8.03 7.96 7.88
13.37 13.06 12.73 12.39 12.02 11.64 11.25 10.85 10.45 10.05 9.66 9.28 8.92 8.58 8.28 8.01 7.77 7.58 7.43 7.33 7.26 7.24 7.25 7.3 7.38 7.48 7.6 7.73 7.87 8.01 8.15 8.28 8.4 8.51 8.6 8.68 8.74 8.78 8.81 8.82 8.82 8.8 8.78 8.75 8.71 8.67 8.62 8.56 8.51 8.45 8.4 8.34 8.28 8.22 8.16 8.09 8.03 7.96 7.9 7.83
13.32 13 12.67 12.32 11.94 11.56 11.16 10.75 10.34 9.93 9.52 9.13 8.77 8.42 8.11 7.83 7.59 7.39 7.24 7.13 7.07 7.04 7.06 7.11 7.19 7.29 7.42 7.55 7.69 7.84 7.98 8.11 8.24 8.35 8.44 8.52 8.58 8.62 8.65 8.66 8.66 8.65 8.63 8.6 8.57 8.52 8.48 8.43 8.38 8.33 8.28 8.23 8.18 8.12 8.07 8.01 7.95 7.89 7.83 7.77
13.28 12.96 12.62 12.26 11.88 11.49 11.08 10.67 10.25 9.83 9.42 9.02 8.65 8.3 7.98 7.69 7.45 7.25 7.09 6.98 6.91 6.89 6.9 6.95 7.03 7.13 7.26 7.39 7.53 7.68 7.82 7.95 8.08 8.18 8.28 8.35 8.41 8.46 8.49 8.5 8.5 8.49 8.47 8.44 8.41 8.37 8.33 8.29 8.25 8.2 8.15 8.11 8.06 8.02 7.97 7.92 7.87 7.82 7.76 7.7
13.25 12.93 12.59 12.23 11.84 11.44 11.03 10.61 10.19 9.77 9.35 8.95 8.57 8.21 7.89 7.6 7.35 7.15 6.99 6.87 6.8 6.77 6.78 6.83 6.91 7.01 7.13 7.26 7.4 7.54 7.68 7.81 7.93 8.03 8.12 8.19 8.25 8.29 8.32 8.33 8.33 8.32 8.3 8.28 8.25 8.21 8.17 8.14 8.1 8.06 8.02 7.98 7.94 7.9 7.86 7.82 7.78 7.73 7.69 7.63
13.24 12.92 12.57 12.21 11.82 11.42 11.01 10.58 10.16 9.73 9.32 8.91 8.53 8.17 7.84 7.55 7.3 7.09 6.93 6.81 6.73 6.7 6.71 6.75 6.82 6.91 7.03 7.15 7.29 7.42 7.55 7.67 7.79 7.89 7.97 8.04 8.09 8.13 8.15 8.16 8.15 8.14 8.12 8.1 8.07 8.04 8.01 7.97 7.94 7.91 7.88 7.85 7.81 7.78 7.75 7.72 7.68 7.64 7.6 7.56
13.23 12.91 12.57 12.2 11.82 11.42 11.01 10.59 10.16 9.74 9.32 8.91 8.53 8.17 7.84 7.55 7.3 7.08 6.92 6.79 6.71 6.67 6.67 6.71 6.77 6.86 6.96 7.08 7.2 7.32 7.44 7.56 7.66 7.75 7.82 7.88 7.93 7.96 7.97 7.98 7.97 7.96 7.94 7.92 7.89 7.86 7.83 7.8 7.77 7.75 7.72 7.7 7.68 7.65 7.63 7.61 7.58 7.55 7.52 7.48
13.24 12.92 12.58 12.22 11.84 11.44 11.03 10.61 10.19 9.77 9.36 8.96 8.57 8.21 7.89 7.59 7.34 7.12 6.95 6.82 6.74 6.69 6.68 6.71 6.76 6.83 6.93 7.03 7.14 7.25 7.36 7.46 7.55 7.62 7.69 7.73 7.77 7.79 7.8 7.8 7.79 7.77 7.75 7.72 7.7 7.67 7.65 7.62 7.6 7.58 7.56 7.55 7.53 7.52 7.51 7.49 7.47 7.45 7.43 7.4
13.26 12.94 12.61 12.25 11.88 11.48 11.08 10.67 10.25 9.84 9.43 9.03 8.65 8.3 7.97 7.68 7.42 7.21 7.03 6.9 6.8 6.75 6.73 6.74 6.78 6.84 6.92 7.01 7.1 7.2 7.29 7.37 7.45 7.51 7.56 7.59 7.61 7.62 7.62 7.61 7.6 7.58 7.55 7.53 7.5 7.48 7.45 7.44 7.42 7.41 7.4 7.39 7.39 7.38 7.38 7.37 7.36 7.35 7.34 7.32
13.28 12.97 12.64 12.3 11.93 11.55 11.15 10.75 10.34 9.94 9.53 9.14 8.77 8.42 8.1 7.81 7.55 7.33 7.15 7.01 6.91 6.85 6.82 6.82 6.84 6.89 6.95 7.02 7.09 7.17 7.24 7.3 7.36 7.4 7.43 7.45 7.46 7.46 7.45 7.43 7.41 7.38 7.35 7.32 7.3 7.28 7.26 7.24 7.23 7.23 7.23 7.23 7.23 7.24 7.24 7.25 7.25 7.25 7.24 7.23
13.32 13.02 12.7 12.36 12 11.63 11.25 10.85 10.46 10.06 9.67 9.29 8.92 8.58 8.26 7.97 7.72 7.5 7.32 7.17 7.06 6.99 6.94 6.93 6.93 6.96 7 7.05 7.1 7.16 7.21 7.25 7.28 7.31 7.32 7.32 7.32 7.3 7.28 7.25 7.22 7.18 7.15 7.12 7.1 7.07 7.06 7.05 7.04 7.05 7.05 7.06 7.08 7.09 7.11 7.12 7.13 7.14 7.14 7.14
13.36 13.07 12.76 12.43 12.09 11.73 11.35 10.97 10.59 10.21 9.83 9.46 9.1 8.77 8.45 8.17 7.92 7.7 7.51 7.36 7.24 7.15 7.1 7.06 7.05 7.06 7.08 7.1 7.13 7.16 7.19 7.21 7.22 7.22 7.22 7.2 7.18 7.14 7.11 7.07 7.03 6.99 6.95 6.92 6.89 6.87 6.86 6.85 6.85 6.86 6.88 6.9 6.92 6.94 6.97 6.99 7.01 7.03 7.05 7.05
13.41 13.13 12.83 12.51 12.18 11.84 11.48 11.11 10.74 10.37 10.01 9.65 9.3 8.98 8.67 8.39 8.14 7.92 7.73 7.57 7.45 7.35 7.28 7.23 7.2 7.18 7.18 7.18 7.18 7.19 7.19 7.18 7.17 7.15 7.12 7.09 7.04 6.99 6.94 6.89 6.84 6.79 6.75 6.72 6.69 6.67 6.66 6.66 6.67 6.68 6.7 6.73 6.76 6.79 6.83 6.86 6.9 6.92 6.95 6.97
13.47 13.2 12.91 12.61 12.29 11.96 11.61 11.26 10.91 10.55 10.2 9.86 9.53 9.21 8.91 8.64 8.39 8.17 7.98 7.81 7.68 7.56 7.48 7.41 7.36 7.32 7.29 7.27 7.25 7.23 7.2 7.17 7.13 7.09 7.04 6.98 6.92 6.85 6.79 6.72 6.66 6.61 6.56 6.52 6.49 6.47 6.46 6.47 6.48 6.5 6.53 6.57 6.61 6.65 6.69 6.74 6.78 6.82 6.85 6.88
13.52 13.27 12.99 12.7 12.4 12.08 11.76 11.42 11.09 10.75 10.41 10.08 9.76 9.46 9.17 8.9 8.66 8.43 8.24 8.07 7.92 7.8 7.69 7.61 7.54 7.48 7.42 7.37 7.33 7.28 7.22 7.17 7.1 7.03 6.96 6.88 6.8 6.72 6.64 6.56 6.49 6.43 6.38 6.33 6.3 6.28 6.28 6.28 6.3 6.33 6.36 6.41 6.46 6.51 6.56 6.62 6.67 6.72 6.76 6.79
13.58 13.34 13.08 12.8 12.51 12.21 11.91 11.59 11.27 10.95 10.63 10.31 10 9.71 9.43 9.17 8.93 8.71 8.51 8.33 8.18 8.04 7.92 7.82 7.73 7.64 7.56 7.49 7.42 7.34 7.26 7.18 7.09 6.99 6.9 6.8 6.7 6.6 6.5 6.41 6.33 6.26 6.2 6.15 6.12 6.1 6.1 6.11 6.13 6.16 6.21 6.26 6.31 6.38 6.44 6.5 6.56 6.62 6.67 6.71
13.65 13.41 13.16 12.9 12.63 12.35 12.06 11.76 11.45 11.15 10.84 10.54 10.25 9.97 9.7 9.45 9.21 8.99 8.79 8.61 8.44 8.29 8.16 8.03 7.92 7.81 7.71 7.61 7.51 7.41 7.3 7.19 7.08 6.96 6.84 6.72 6.6 6.49 6.38 6.28 6.18 6.11 6.04 5.99 5.95 5.94 5.93 5.94 5.97 6.01 6.06 6.12 6.18 6.25 6.32 6.39 6.46 6.53 6.58 6.64
13.71 13.48 13.25 13 12.75 12.48 12.2 11.92 11.64 11.35 11.06 10.78 10.5 10.23 9.97 9.72 9.48 9.27 9.06 8.88 8.7 8.54 8.39 8.25 8.12 7.99 7.87 7.74 7.62 7.49 7.36 7.22 7.08 6.94 6.8 6.66 6.52 6.39 6.27 6.15 6.05 5.97 5.89 5.84 5.8 5.78 5.78 5.8 5.82 5.87 5.92 5.99 6.06 6.14 6.21 6.29 6.37 6.44 6.51 6.56
13.77 13.55 13.33 13.1 12.86 12.61 12.35 12.08 11.81 11.54 11.27 11 10.73 10.48 10.23 9.99 9.76 9.54 9.33 9.14 8.96 8.79 8.63 8.47 8.32 8.17 8.02 7.88 7.73 7.57 7.42 7.26 7.1 6.94 6.77 6.61 6.46 6.31 6.18 6.05 5.94 5.84 5.77 5.71 5.67 5.65 5.65 5.66 5.7 5.74 5.8 5.87 5.95 6.03 6.12 6.21 6.29 6.37 6.44 6.5
13.82 13.62 13.41 13.19 12.97 12.73 12.49 12.24 11.99 11.73 11.47 11.22 10.96 10.72 10.48 10.24 10.02 9.8 9.6 9.4 9.21 9.03 8.85 8.68 8.51 8.35 8.18 8.01 7.84 7.66 7.48 7.3 7.12 6.94 6.76 6.58 6.41 6.25 6.1 5.97 5.85 5.74 5.66 5.6 5.56 5.54 5.53 5.55 5.59 5.64 5.7 5.78 5.86 5.95 6.04 6.13 6.22 6.3 6.38 6.45
13.87 13.69 13.49 13.28 13.07 12.85 12.62 12.38 12.15 11.91 11.66 11.42 11.18 10.95 10.71 10.49 10.27 10.05 9.85 9.65 9.45 9.26 9.07 8.89 8.71 8.52 8.33 8.15 7.95 7.76 7.56 7.36 7.16 6.96 6.76 6.57 6.38 6.21 6.05 5.9 5.77 5.66 5.58 5.51 5.47 5.44 5.44 5.46 5.5 5.55 5.62 5.7 5.78 5.88 5.97 6.07 6.16 6.25 6.33 6.4
13.92 13.74 13.56 13.36 13.16 12.95 12.74 12.52 12.3 12.07 11.84 11.61 11.39 11.16 10.94 10.72 10.5 10.29 10.08 9.88 9.68 9.48 9.28 9.09 8.89 8.69 8.49 8.28 8.07 7.86 7.64 7.42 7.2 6.99 6.77 6.57 6.37 6.18 6.01 5.86 5.72 5.61 5.52 5.45 5.4 5.38 5.38 5.39 5.43 5.49 5.56 5.64 5.73 5.82 5.92 6.02 6.11 6.2 6.29 6.37
13.97 13.8 13.62 13.44 13.25 13.05 12.85 12.65 12.44 12.22 12.01 11.79 11.57 11.36 11.14 10.93 10.72 10.51 10.3 10.1 9.89 9.69 9.48 9.27 9.06 8.85 8.63 8.41 8.19 7.96 7.73 7.49 7.26 7.03 6.8 6.58 6.38 6.18 6 5.84 5.7 5.58 5.48 5.41 5.36 5.33 5.33 5.35 5.39 5.44 5.51 5.6 5.69 5.78 5.88 5.98 6.08 6.18 6.26 6.34
14 13.84 13.68 13.5 13.33 13.14 12.95 12.76 12.56 12.36 12.16 11.95 11.74 11.54 11.33 11.12 10.91 10.71 10.5 10.29 10.09 9.88 9.67 9.45 9.23 9.01 8.78 8.54 8.3 8.06 7.82 7.57 7.33 7.08 6.85 6.62 6.4 6.2 6.01 5.85 5.7 5.57 5.47 5.4 5.35 5.32 5.32 5.33 5.37 5.43 5.5 5.58 5.67 5.76 5.87 5.97 6.07 6.16 6.25 6.32
14.04 13.88 13.73 13.56 13.39 13.22 13.04 12.86 12.67 12.48 12.29 12.09 11.9 11.7 11.5 11.3 11.09 10.89 10.69 10.48 10.27 10.06 9.84 9.62 9.39 9.16 8.92 8.67 8.42 8.17 7.92 7.66 7.41 7.15 6.91 6.67 6.45 6.24 6.05 5.88 5.72 5.6 5.49 5.41 5.36 5.33 5.32 5.34 5.38 5.43 5.5 5.58 5.67 5.77 5.86 5.97 6.06 6.16 6.24 6.32
14.07 13.92 13.77 13.61 13.46 13.29 13.12 12.95 12.77 12.59 12.41 12.22 12.03 11.84 11.65 11.45 11.26 11.06 10.85 10.64 10.43 10.22 10 9.77 9.54 9.3 9.05 8.8 8.54 8.28 8.02 7.76 7.49 7.24 6.99 6.74 6.52 6.3 6.1 5.93 5.77 5.64 5.54 5.45 5.4 5.37 5.36 5.37 5.41 5.46 5.52 5.6 5.69 5.78 5.88 5.98 6.07 6.17 6.25 6.33
14.09 13.95 13.81 13.66 13.51 13.35 13.19 13.03 12.86 12.69 12.51 12.33 12.15 11.97 11.78 11.59 11.4 11.2 11 10.79 10.58 10.37 10.14 9.91 9.68 9.43 9.18 8.93 8.66 8.4 8.13 7.86 7.59 7.33 7.08 6.83 6.6 6.38 6.18 6 5.85 5.71 5.6 5.52 5.46 5.43 5.42 5.43 5.46 5.51 5.57 5.65 5.73 5.82 5.91 6.01 6.1 6.19 6.27 6.34
14.11 13.98 13.84 13.7 13.55 13.4 13.25 13.09 12.93 12.77 12.6 12.43 12.26 12.08 11.9 11.71 11.53 11.33 11.13 10.93 10.72 10.5 10.28 10.05 9.81 9.56 9.31 9.05 8.78 8.52 8.24 7.97 7.71 7.44 7.18 6.94 6.7 6.48 6.28 6.1 5.94 5.81 5.7 5.61 5.55 5.51 5.5 5.51 5.53 5.58 5.64 5.71 5.79 5.87 5.96 6.05 6.14 6.22 6.3 6.37
14.13 14 13.86 13.73 13.59 13.44 13.3 13.15 12.99 12.84 12.68 12.51 12.35 12.18 12 11.82 11.64 11.45 11.25 11.05 10.84 10.63 10.4 10.17 9.93 9.69 9.43 9.17 8.91 8.64 8.37 8.09 7.83 7.56 7.3 7.06 6.82 6.6 6.4 6.22 6.06 5.93 5.81 5.73 5.66 5.62 5.6 5.61 5.63 5.67 5.72 5.79 5.86 5.94 6.03 6.11 6.19 6.27 6.34 6.4
14.14 14.01 13.88 13.75 13.62 13.48 13.34 13.19 13.05 12.9 12.74 12.59 12.42 12.26 12.09 11.91 11.73 11.55 11.36 11.16 10.95 10.74 10.52 10.29 10.05 9.8 9.55 9.29 9.03 8.76 8.49 8.22 7.95 7.69 7.44 7.19 6.96 6.74 6.54 6.36 6.2 6.06 5.95 5.86 5.79 5.75 5.73 5.73 5.75 5.78 5.83 5.89 5.95 6.03 6.1 6.18 6.25 6.32 6.39 6.45
14.15 14.02 13.9 13.77 13.64 13.51 13.37 13.23 13.09 12.95 12.8 12.64 12.49 12.33 12.16 11.99 11.82 11.64 11.45 11.25 11.05 10.84 10.62 10.39 10.16 9.92 9.67 9.41 9.15 8.89 8.62 8.35 8.09 7.83 7.58 7.34 7.11 6.89 6.69 6.51 6.35 6.22 6.1 6.01 5.94 5.9 5.87 5.87 5.88 5.9 5.95 6 6.06 6.12 6.19 6.26 6.33 6.39 6.45 6.5
14.15 14.03 13.91 13.78 13.66 13.53 13.4 13.26 13.13 12.99 12.84 12.69 12.54 12.39 12.23 12.06 11.89 11.71 11.53 11.34 11.14 10.93 10.72 10.49 10.26 10.02 9.78 9.53 9.27 9.01 8.75 8.49 8.23 7.98 7.73 7.49 7.27 7.05 6.86 6.68 6.52 6.39 6.27 6.18 6.11 6.06 6.03 6.02 6.02 6.04 6.08 6.12 6.17 6.23 6.29 6.35 6.41 6.46 6.51 6.55
14.16 14.04 13.92 13.8 13.67 13.55 13.42 13.29 13.15 13.02 12.88 12.73 12.59 12.44 12.28 12.12 11.95 11.78 11.6 11.41 11.22 11.02 10.81 10.59 10.36 10.13 9.89 9.64 9.39 9.14 8.88 8.63 8.38 8.13 7.89 7.65 7.43 7.23 7.03 6.86 6.7 6.57 6.45 6.36 6.29 6.23 6.2 6.18 6.18 6.19 6.22 6.25 6.3 6.34 6.39 6.44 6.49 6.54 6.58 6.61
14.16 14.04 13.92 13.8 13.68 13.56 13.43 13.3 13.18 13.04 12.91 12.77 12.62 12.48 12.32 12.17 12.01 11.84 11.66 11.48 11.29 11.09 10.89 10.68 10.46 10.23 10 9.76 9.51 9.27 9.02 8.77 8.52 8.28 8.05 7.82 7.61 7.41 7.22 7.05 6.89 6.76 6.64 6.55 6.47 6.41 6.37 6.35 6.34 6.35 6.37 6.39 6.43 6.46 6.51 6.55 6.59 6.62 6.65 6.68
14.16 14.04 13.92 13.81 13.69 13.57 13.44 13.32 13.19 13.06 12.93 12.79 12.65 12.51 12.36 12.21 12.05 11.89 11.72 11.54 11.36 11.16 10.96 10.76 10.54 10.32 10.1 9.87 9.63 9.39 9.15 8.91 8.67 8.44 8.21 7.99 7.79 7.59 7.41 7.24 7.09 6.95 6.84 6.74 6.66 6.6 6.56 6.53 6.52 6.51 6.52 6.54 6.56 6.59 6.62 6.65 6.68 6.71 6.73 6.75
14.15 14.04 13.92 13.81 13.69 13.57 13.45 13.33 13.2 13.08 12.95 12.81 12.68 12.54 12.39 12.24 12.09 11.93 11.76 11.59 11.41 11.23 11.03 10.83 10.63 10.42 10.2 9.97 9.75 9.52 9.29 9.05 8.83 8.6 8.38 8.17 7.97 7.78 7.6 7.43 7.29 7.15 7.04 6.94 6.86 6.79 6.75 6.71 6.69 6.68 6.68 6.69 6.7 6.72 6.74 6.76 6.78 6.8 6.81 6.82
14.15 14.04 13.92 13.81 13.69 13.57 13.45 13.33 13.21 13.09 12.96 12.83 12.7 12.56 12.42 12.27 12.12 11.97 11.81 11.64 11.47 11.29 11.1 10.91 10.71 10.5 10.29 10.08 9.86 9.64 9.41 9.19 8.97 8.76 8.54 8.34 8.15 7.96 7.79 7.63 7.48 7.35 7.24 7.14 7.06 6.99 6.93 6.89 6.86 6.85 6.84 6.84 6.84 6.85 6.86 6.87 6.88 6.88 6.89 6.89
14.14 14.03 13.92 13.8 13.69 13.57 13.46 13.34 13.22 13.09 12.97 12.84 12.71 12.58 12.44 12.3 12.15 12 11.84 11.68 11.51 11.34 11.16 10.97 10.78 10.59 10.38 10.18 9.97 9.75 9.54 9.33 9.12 8.91 8.71 8.51 8.32 8.14 7.98 7.82 7.68 7.55 7.44 7.33 7.25 7.18 7.12 7.07 7.04 7.01 6.99 6.98 6.98 6.98 6.98 6.98 6.97 6.97 6.96 6.95
14.14 14.02 13.91 13.8 13.69 13.57 13.46 13.34 13.22 13.1 12.98 12.85 12.72 12.59 12.46 12.32 12.18 12.03 11.88 11.72 11.56 11.39 11.22 11.04 10.85 10.66 10.47 10.27 10.07 9.87 9.66 9.46 9.26 9.06 8.86 8.68 8.49 8.32 8.16 8.01 7.87 7.74 7.63 7.53 7.44 7.36 7.3 7.25 7.21 7.17 7.15 7.13 7.11 7.1 7.09 7.08 7.07 7.06 7.04 7.02
14.13 14.02 13.91 13.79 13.68 13.57 13.45 13.34 13.22 13.1 12.98 12.86 12.73 12.6 12.47 12.34 12.2 12.05 11.91 11.75 11.6 11.43 11.27 11.09 10.92 10.73 10.55 10.36 10.17 9.97 9.78 9.58 9.39 9.2 9.01 8.83 8.66 8.49 8.33 8.19 8.05 7.93 7.81 7.71 7.62 7.54 7.48 7.42 7.37 7.33 7.29 7.27 7.24 7.22 7.2 7.18 7.16 7.14 7.11 7.09
14.12 14.01 13.9 13.79 13.68 13.56 13.45 13.33 13.22 13.1 12.98 12.86 12.74 12.61 12.48 12.35 12.21 12.07 11.93 11.78 11.63 11.47 11.31 11.15 10.98 10.8 10.62 10.44 10.26 10.07 9.89 9.7 9.52 9.33 9.16 8.98 8.82 8.66 8.5 8.36 8.23 8.1 7.99 7.89 7.8 7.71 7.64 7.58 7.52 7.48 7.44 7.4 7.37 7.33 7.31 7.28 7.25 7.22 7.18 7.15
14.11 14 13.89 13.78 13.67 13.56 13.45 13.33 13.22 13.1 12.98 12.86 12.74 12.62 12.49 12.36 12.23 12.09 11.95 11.81 11.66 11.51 11.35 11.19 11.03 10.86 10.69 10.52 10.34 10.17 9.99 9.81 9.64 9.46 9.29 9.12 8.96 8.81 8.66 8.52 8.39 8.27 8.16 8.05 7.96 7.88 7.8 7.73 7.67 7.62 7.57 7.52 7.48 7.44 7.41 7.37 7.33 7.29 7.25 7.2
14.1 13.99 13.88 13.77 13.66 13.55 13.44 13.33 13.21 13.1 12.98 12.86 12.74 12.62 12.5 12.37 12.24 12.11 11.97 11.83 11.69 11.54 11.39 11.24 11.08 10.92 10.76 10.59 10.42 10.25 10.08 9.91 9.75 9.58 9.42 9.26 9.1 8.95 8.81 8.67 8.54 8.42 8.31 8.21 8.11 8.03 7.95 7.87 7.81 7.75 7.69 7.64 7.59 7.54 7.5 7.45 7.41 7.36 7.31 7.26
